!!!COM: Bach, Johann Sebastian
!!!OPR: Passio Secundum Joannem
!!!OTL:
!!!OMV: 1
!!!SCT: BWV 245
!!!SCA: Thematisch-systematisches Verzeichnis der musikalischen Werke Johann Sebastian Bach: Bach-Werke-Verzeichnis (Schmieder)
!!!YOR: Bach Gesellschaft Edition 406
!!!EED: Frances Bennion
!!!ENC: Frances Bennion
!!!CDT: 1685/3//-1750/7/28/
!!!OCY: Deutschland
!!!YEC: Copyright (c) 1994, 2000 Center for Computer Assisted Research in the Humanities
!!!YEM: Rights to all derivative editions reserved.
!!!YEM: Refer to licensing agreement for further details.
!!!YEN: United States of America
**kern	**kern	**kern	**kern	**kern	**kern	**kern	**kern	**kern	**kern	**kern	**kern
*k[b-e-]	*k[b-e-]	*k[b-e-]	*k[b-e-]	*k[b-e-]	*k[b-e-]	*k[b-e-]	*k[b-e-]	*k[b-e-]	*k[b-e-]	*k[b-e-]	*k[b-e-]
*g:	*g:	*g:	*g:	*g:	*g:	*g:	*g:	*g:	*g:	*g:	*g:
*clefG	*clefG	*clefG	*clefG	*clefG	*clefG	*clefC	*clefC	*clefG	*clefG	*clefG	*clefC
*M4/4	*M4/4	*M4/4	*M4/4	*M4/4	*M4/4	*M4/4	*M4/4	*M4/4	*M4/4	*M4/4	*M4/4
=1	=1	=1	=1	=1	=1	=1	=1	=1	=1	=1	=1
16d	16B-	8G	1r	1r	1r	1r	8GG	2r	4r	4r	4GG
16c	16A	.	.	.	.	.	.	.	.	.	.
16d	16B-	8D	.	.	.	.	8GG	.	.	.	.
16e-	16c	.	.	.	.	.	.	.	.	.	.
16d	16B-	8G	.	.	.	.	8GG	.	2dd	2dd	4r
16c	16A	.	.	.	.	.	.	.	.	.	.
16d	16B-	8D	.	.	.	.	8GG	.	.	.	.
16e-	16c	.	.	.	.	.	.	.	.	.	.
16d	16B-	8G	.	.	.	.	8GG	[2ee-	.	.	4GG
16c	16A	.	.	.	.	.	.	.	.	.	.
16d	16B-	8E-	.	.	.	.	8GG	.	.	.	.
16e-	16c	.	.	.	.	.	.	.	.	.	.
16d	16B-	8G	.	.	.	.	8GG	.	4g	4g	4r
16c	16A	.	.	.	.	.	.	.	.	.	.
16d	16B-	8E-	.	.	.	.	8GG	.	.	.	.
16e-	16c	.	.	.	.	.	.	.	.	.	.
=2	=2	=2	=2	=2	=2	=2	=2	=2	=2	=2	=2
16c	16A	8e-	1r	1r	1r	1r	8GG	4ee-]	[1cc	[1cc	4GG
16B-	16G	.	.	.	.	.	.	.	.	.	.
16c	16A	8c	.	.	.	.	8GG	.	.	.	.
16d	16B-	.	.	.	.	.	.	.	.	.	.
16c	16A	8e-	.	.	.	.	8GG	4cc	.	.	4r
16B-	16G	.	.	.	.	.	.	.	.	.	.
16c	16A	8c	.	.	.	.	8GG	.	.	.	.
16d	16B-	.	.	.	.	.	.	.	.	.	.
16c	16A	8e-	.	.	.	.	8GG	2f#	.	.	4GG
16B-	16G	.	.	.	.	.	.	.	.	.	.
16c	16A	8c	.	.	.	.	8GG	.	.	.	.
16d	16B-	.	.	.	.	.	.	.	.	.	.
16c	16A	8e-	.	.	.	.	8GG	.	.	.	4r
16B-	16G	.	.	.	.	.	.	.	.	.	.
16c	16A	8c	.	.	.	.	8GG	.	.	.	.
16e-	16B-	.	.	.	.	.	.	.	.	.	.
=3	=3	=3	=3	=3	=3	=3	=3	=3	=3	=3	=3
16d	16G	8g	1r	1r	1r	1r	8GG	2.g	2cc]	2cc]	4GG
16c	16A	.	.	.	.	.	.	.	.	.	.
16d	8.G	8d	.	.	.	.	8GG	.	.	.	.
16e-	.	.	.	.	.	.	.	.	.	.	.
16d	.	8g	.	.	.	.	8GG	.	.	.	4r
16c	16A	.	.	.	.	.	.	.	.	.	.
16d	8.G	8d	.	.	.	.	8GG	.	.	.	.
16e-	.	.	.	.	.	.	.	.	.	.	.
16d	.	8g	.	.	.	.	8GG	.	2b-	2b-	4GG
16c	16A	.	.	.	.	.	.	.	.	.	.
16d	16B-	8d	.	.	.	.	8GG	.	.	.	.
16e-	16c	.	.	.	.	.	.	.	.	.	.
16d	16B-	8g	.	.	.	.	8GG	[4gg	.	.	4r
16c	16A	.	.	.	.	.	.	.	.	.	.
16d	16B-	8d	.	.	.	.	8GG	.	.	.	.
16e-	16G	.	.	.	.	.	.	.	.	.	.
=4	=4	=4	=4	=4	=4	=4	=4	=4	=4	=4	=4
16c	16e-	8e-	1r	1r	1r	1r	8GG	4gg]	2.aa-	2.aa-	4GG
16B	16d	.	.	.	.	.	.	.	.	.	.
16c	16e-	8c	.	.	.	.	8GG	.	.	.	.
16d	16f	.	.	.	.	.	.	.	.	.	.
16c	16e-	8e-	.	.	.	.	8GG	4cc	.	.	4r
16B	16d	.	.	.	.	.	.	.	.	.	.
16c	16e-	8c	.	.	.	.	8GG	.	.	.	.
16d	16f	.	.	.	.	.	.	.	.	.	.
16c	16e-	8a-	.	.	.	.	8GG	[2ff	.	.	4GG
16B	16d	.	.	.	.	.	.	.	.	.	.
16c	16e-	8f	.	.	.	.	8GG	.	.	.	.
16d	16f	.	.	.	.	.	.	.	.	.	.
16c	16e-	8a-	.	.	.	.	8GG	.	4ff	4ff	4r
16B	16d	.	.	.	.	.	.	.	.	.	.
16c	16e-	8f	.	.	.	.	8GG	.	.	.	.
16e-	16f	.	.	.	.	.	.	.	.	.	.
=5	=5	=5	=5	=5	=5	=5	=5	=5	=5	=5	=5
16d	16g	16G	1r	1r	1r	1r	8GG	1ff]	4b	4b	4GG
16c	16f	16A	.	.	.	.	.	.	.	.	.
16d	16g	16B	.	.	.	.	8GG	.	.	.	.
16e-	16a-	16c	.	.	.	.	.	.	.	.	.
16d	16g	16B	.	.	.	.	8GG	.	4cc	4cc	4r
16c	16f	16A	.	.	.	.	.	.	.	.	.
16d	16g	16B	.	.	.	.	8GG	.	.	.	.
16e-	16a-	16c	.	.	.	.	.	.	.	.	.
16d	16g	16B	.	.	.	.	8GG	.	[2dd	[2dd	4GG
16c	16f	16A	.	.	.	.	.	.	.	.	.
16d	16g	16B	.	.	.	.	8GG	.	.	.	.
16e-	16a-	16c	.	.	.	.	.	.	.	.	.
16d	16g	16B	.	.	.	.	8GG	.	.	.	4r
16c	16f	16A	.	.	.	.	.	.	.	.	.
16d	16g	16B	.	.	.	.	8GG	.	.	.	.
16B	16d	16d	.	.	.	.	.	.	.	.	.
=6	=6	=6	=6	=6	=6	=6	=6	=6	=6	=6	=6
16g	16e-	8c	1r	1r	1r	1r	8GG	[1ee-	2dd]	2dd]	4GG
16f	16d	.	.	.	.	.	.	.	.	.	.
16g	16e-	8G	.	.	.	.	8GG	.	.	.	.
16a-	16f	.	.	.	.	.	.	.	.	.	.
16g	16e-	8c	.	.	.	.	8GG	.	.	.	4r
16f	16d	.	.	.	.	.	.	.	.	.	.
16g	16e-	8G	.	.	.	.	8GG	.	.	.	.
16a-	16f	.	.	.	.	.	.	.	.	.	.
16g	16e-	8c	.	.	.	.	8GG	.	2cc	2cc	4GG
16f#	16d	.	.	.	.	.	.	.	.	.	.
16g	16e-	8G	.	.	.	.	8GG	.	.	.	.
16a	16f	.	.	.	.	.	.	.	.	.	.
16g	16e-	8c	.	.	.	.	8GG	.	.	.	4r
16f#	16d	.	.	.	.	.	.	.	.	.	.
16g	16e-	8G	.	.	.	.	8GG	.	.	.	.
16b-	16f	.	.	.	.	.	.	.	.	.	.
=7	=7	=7	=7	=7	=7	=7	=7	=7	=7	=7	=7
16a	16e-	16c	1r	1r	1r	1r	8GG	2ee-]	4ff#	4ff#	4GG
16g	16d	16B-	.	.	.	.	.	.	.	.	.
16a	16e-	16c	.	.	.	.	8GG	.	.	.	.
16cc	16a	16d	.	.	.	.	.	.	.	.	.
16a	16e-	16c	.	.	.	.	8GG	.	4gg	4gg	4r
16g	16d	16B-	.	.	.	.	.	.	.	.	.
16a	16e-	16c	.	.	.	.	8GG	.	.	.	.
16b-	16g	16d	.	.	.	.	.	.	.	.	.
16a	16f#	16c	.	.	.	.	8GG	4dd	[2aa	[2aa	4GG
16g	16e	16B-	.	.	.	.	.	.	.	.	.
16a	16f#	16c	.	.	.	.	8GG	.	.	.	.
16b-	16g	16d	.	.	.	.	.	.	.	.	.
16a	16f#	8e-	.	.	.	.	8GG	4cc	.	.	4r
16g	16e	.	.	.	.	.	.	.	.	.	.
16a	16f#	8A	.	.	.	.	8GG	.	.	.	.
16f#	16a	.	.	.	.	.	.	.	.	.	.
=8	=8	=8	=8	=8	=8	=8	=8	=8	=8	=8	=8
16b-	16g	16d	1r	1r	1r	1r	8GG	2b-	2aa]	2aa]	4GG
16a	16f#	16c	.	.	.	.	.	.	.	.	.
16b-	16g	16d	.	.	.	.	8GG	.	.	.	.
16cc	16a	16e-	.	.	.	.	.	.	.	.	.
16b-	16g	16d	.	.	.	.	8GG	.	.	.	4r
16a	16f#	16c	.	.	.	.	.	.	.	.	.
16b-	16g	16d	.	.	.	.	8GG	.	.	.	.
16cc	16a	16f#	.	.	.	.	.	.	.	.	.
16b-	16d	16g	.	.	.	.	8GG	[2bb-	4gg	4gg	4GG
16a	16c	16f#	.	.	.	.	.	.	.	.	.
16b-	16d	16g	.	.	.	.	8GG	.	.	.	.
16a	16e-	16a	.	.	.	.	.	.	.	.	.
16b-	16d	16g	.	.	.	.	8GG	.	4ff	4ff	4r
16a	16c	16f#	.	.	.	.	.	.	.	.	.
16b-	16d	16g	.	.	.	.	8GG	.	.	.	.
16dd	16b-	16d	.	.	.	.	.	.	.	.	.
=9	=9	=9	=9	=9	=9	=9	=9	=9	=9	=9	=9
16cc#	16e	16g	1r	1r	1r	1r	8GG	4bb-]	2ee	2ee	4GG
16b	16d	16f	.	.	.	.	.	.	.	.	.
16cc#	16e	16g	.	.	.	.	8GG	.	.	.	.
16dd	16f	16a	.	.	.	.	.	.	.	.	.
16cc#	16e	16b-	.	.	.	.	8GG	4gg	.	.	4r
16b	16d	16f	.	.	.	.	.	.	.	.	.
16cc#	16e	16g	.	.	.	.	8GG	.	.	.	.
16dd	16g	16b-	.	.	.	.	.	.	.	.	.
16ee	16b-	16g	.	.	.	.	8GG	2cc#	[2gg	[2gg	4GG
16dd	16a	16f	.	.	.	.	.	.	.	.	.
16ee	16b-	16g	.	.	.	.	8GG	.	.	.	.
16ff	16cc	16a	.	.	.	.	.	.	.	.	.
16ee	16b-	16g	.	.	.	.	8GG	.	.	.	4r
16dd	16a	16f	.	.	.	.	.	.	.	.	.
16ee	16b-	16g	.	.	.	.	8GG	.	.	.	.
16ff	16cc	16a	.	.	.	.	.	.	.	.	.
=10	=10	=10	=10	=10	=10	=10	=10	=10	=10	=10	=10
16dd	16a	16d	1r	1r	1r	1r	8D	2dd	2gg]	2gg]	4D
16cc	16g	16e-	.	.	.	.	.	.	.	.	.
16dd	16a	16d	.	.	.	.	8D	.	.	.	.
16ee-	16b-	16c	.	.	.	.	.	.	.	.	.
16dd	16a	16d	.	.	.	.	8D	.	.	.	4r
16cc	16g	16e-	.	.	.	.	.	.	.	.	.
16dd	16a	16d	.	.	.	.	8D	.	.	.	.
16ee-	16b-	16c	.	.	.	.	.	.	.	.	.
16dd	16a	16d	.	.	.	.	8D	[2ccc	4ff#	4ff#	4D
16cc	16g	16e	.	.	.	.	.	.	.	.	.
16dd	16a	16f#	.	.	.	.	8D	.	.	.	.
16ee-	16b-	16g	.	.	.	.	.	.	.	.	.
16cc	16a	16a	.	.	.	.	8D	.	4ee	4ee	4r
16b-	16g	16b-	.	.	.	.	.	.	.	.	.
16cc	16a	16a	.	.	.	.	8D	.	.	.	.
16ee-	16b-	16g	.	.	.	.	.	.	.	.	.
=11	=11	=11	=11	=11	=11	=11	=11	=11	=11	=11	=11
16dd	16a	16f#	1r	1r	1r	1r	8DD	2ccc]	2ff#	2ff#	4DD
16cc	16g	16e	.	.	.	.	.	.	.	.	.
16dd	16a	16f#	.	.	.	.	8DD	.	.	.	.
16ee-	16b-	16g	.	.	.	.	.	.	.	.	.
16dd	16a	16f#	.	.	.	.	8DD	.	.	.	4r
16cc	16g	16e	.	.	.	.	.	.	.	.	.
16dd	16a	16f#	.	.	.	.	8DD	.	.	.	.
16ee-	16b-	16g	.	.	.	.	.	.	.	.	.
16dd	16a-	16d	.	.	.	.	8DD	4bb	[2ff	[2ff	4DD
16cc	16g	16e-	.	.	.	.	.	.	.	.	.
16dd	16a-	16f	.	.	.	.	8DD	.	.	.	.
16ee-	16b-	16g	.	.	.	.	.	.	.	.	.
16dd	16cc	16f	.	.	.	.	8DD	4aa	.	.	4r
16cc	16ee-	16e-	.	.	.	.	.	.	.	.	.
16dd	16dd	16f	.	.	.	.	8DD	.	.	.	.
16ee-	16cc	16g	.	.	.	.	.	.	.	.	.
=12	=12	=12	=12	=12	=12	=12	=12	=12	=12	=12	=12
16dd	16b	8a-	1r	1r	1r	1r	8GG	2bb	2ff]	2ff]	4GG
16cc	16a	.	.	.	.	.	.	.	.	.	.
16dd	16b	8d	.	.	.	.	8GG	.	.	.	.
16ee-	16cc	.	.	.	.	.	.	.	.	.	.
16dd	16b	8a-	.	.	.	.	8GG	.	.	.	4r
16cc	16a	.	.	.	.	.	.	.	.	.	.
16dd	16g	8d	.	.	.	.	8GG	.	.	.	.
16b	16f	.	.	.	.	.	.	.	.	.	.
16g	16g	8g	.	.	.	.	8GG	[2bb-	4ee	4ee	4GG
16f	16a	.	.	.	.	.	.	.	.	.	.
16g	16b-	8B-	.	.	.	.	8GG	.	.	.	.
16a	16cc	.	.	.	.	.	.	.	.	.	.
16b-	16dd	8g	.	.	.	.	8GG	.	4dd	4dd	4r
16a	16cc	.	.	.	.	.	.	.	.	.	.
16b-	16dd	8B-	.	.	.	.	8GG	.	.	.	.
16dd	16b-	.	.	.	.	.	.	.	.	.	.
=13	=13	=13	=13	=13	=13	=13	=13	=13	=13	=13	=13
16cc	16g	16c	1r	1r	1r	1r	8C	2bb-]	2ee	2ee	4C
16b-	16f	16d	.	.	.	.	.	.	.	.	.
16cc	16g	16e	.	.	.	.	8C	.	.	.	.
16dd	16a	16f	.	.	.	.	.	.	.	.	.
16cc	16g	16e	.	.	.	.	8C	.	.	.	4r
16b-	16f	16d	.	.	.	.	.	.	.	.	.
16cc	16g	16e	.	.	.	.	8C	.	.	.	.
16dd	16f	16g	.	.	.	.	.	.	.	.	.
16cc	16e-	8a	.	.	.	.	8C	4aa	[2ee-	[2ee-	4C
16b-	16g	.	.	.	.	.	.	.	.	.	.
16cc	16a	8c	.	.	.	.	8C	.	.	.	.
16dd	16b-	.	.	.	.	.	.	.	.	.	.
16ee-	16cc	8cc	.	.	.	.	8C	4gg	.	.	4r
16ff	16dd	.	.	.	.	.	.	.	.	.	.
16ee-	16cc	8e-	.	.	.	.	8C	.	.	.	.
16dd	16b-	.	.	.	.	.	.	.	.	.	.
=14	=14	=14	=14	=14	=14	=14	=14	=14	=14	=14	=14
16cc	16a	8f	1r	1r	1r	1r	8FF	2aa	2ee-]	2ee-]	4FF
16b-	16g	.	.	.	.	.	.	.	.	.	.
16cc	16a	8c	.	.	.	.	8FF	.	.	.	.
16dd	16b-	.	.	.	.	.	.	.	.	.	.
16cc	16a	8f	.	.	.	.	8FF	.	.	.	4r
16b-	16g	.	.	.	.	.	.	.	.	.	.
16cc	16f	8c	.	.	.	.	8FF	.	.	.	.
16a	16e-	.	.	.	.	.	.	.	.	.	.
16f	16f	8f	.	.	.	.	8FF	[2aa-	4dd	4dd	4FF
16e-	16g	.	.	.	.	.	.	.	.	.	.
16f	16a-	8F	.	.	.	.	8FF	.	.	.	.
16g	16b-	.	.	.	.	.	.	.	.	.	.
16a-	16cc	8f	.	.	.	.	8FF	.	4cc	4cc	4r
16g	16b-	.	.	.	.	.	.	.	.	.	.
16a-	16cc	8e-	.	.	.	.	8FF	.	.	.	.
16cc	16a-	.	.	.	.	.	.	.	.	.	.
=15	=15	=15	=15	=15	=15	=15	=15	=15	=15	=15	=15
16b-	16f	16d	1r	1r	1r	1r	8BB-	2aa-]	1dd	1dd	4BB-
16a-	16e-	16c	.	.	.	.	.	.	.	.	.
16b-	16f	16d	.	.	.	.	8BB-	.	.	.	.
16cc	16g	16e-	.	.	.	.	.	.	.	.	.
16b-	16f	16d	.	.	.	.	8BB-	.	.	.	4r
16a-	16e-	16c	.	.	.	.	.	.	.	.	.
16b-	16f	16d	.	.	.	.	8BB-	.	.	.	.
16cc	16c	16f#	.	.	.	.	.	.	.	.	.
16b-	16d	8g	.	.	.	.	8BB-	4gg	.	.	4BB-
16a	16f#	.	.	.	.	.	.	.	.	.	.
16b-	16g	8d	.	.	.	.	8BB-	.	.	.	.
16cc	16a	.	.	.	.	.	.	.	.	.	.
16dd	16b-	8b-	.	.	.	.	8BB-	4ff#	.	.	4r
16ee-	16cc	.	.	.	.	.	.	.	.	.	.
16dd	16b-	8d	.	.	.	.	8BB-	.	.	.	.
16cc	16a	.	.	.	.	.	.	.	.	.	.
=16	=16	=16	=16	=16	=16	=16	=16	=16	=16	=16	=16
16b-	16g	8g	1r	1r	1r	1r	8EE	[1gg	2cc#	2cc#	4EE
16a	16f#	.	.	.	.	.	.	.	.	.	.
16b-	16g	8G	.	.	.	.	8EE	.	.	.	.
16cc	16a	.	.	.	.	.	.	.	.	.	.
16b-	16g	8B-	.	.	.	.	8EE	.	.	.	4r
16a	16f#	.	.	.	.	.	.	.	.	.	.
16b-	16g	8G	.	.	.	.	8EE	.	.	.	.
16cc	16a	.	.	.	.	.	.	.	.	.	.
16a	16c	16e-	.	.	.	.	8EE-	.	2cc	2cc	4EE-
16g	16B-	16d	.	.	.	.	.	.	.	.	.
16a	16c	16e-	.	.	.	.	8EE-	.	.	.	.
16b-	16d	16f	.	.	.	.	.	.	.	.	.
16a	16c	16e-	.	.	.	.	8EE-	.	.	.	4r
16g	16B-	16d	.	.	.	.	.	.	.	.	.
16a	16c	16e-	.	.	.	.	8EE-	.	.	.	.
16cc	16a	16c	.	.	.	.	.	.	.	.	.
=17	=17	=17	=17	=17	=17	=17	=17	=17	=17	=17	=17
16dd	16b	8g	1r	1r	1r	1r	8DD	1gg_	2b	2b	4DD
16cc	16a	.	.	.	.	.	.	.	.	.	.
16dd	16b	8d	.	.	.	.	8DD	.	.	.	.
16ee-	16cc	.	.	.	.	.	.	.	.	.	.
16dd	16b	8g	.	.	.	.	8DD	.	.	.	4r
16cc	16a	.	.	.	.	.	.	.	.	.	.
16dd	16b	8d	.	.	.	.	8DD	.	.	.	.
16ff	16a	.	.	.	.	.	.	.	.	.	.
16ee	16g	16b-	.	.	.	.	8CC#	.	2b-	2b-	4CC#
16dd	16f#	16a	.	.	.	.	.	.	.	.	.
16ee	16g	16b-	.	.	.	.	8CC#	.	.	.	.
16ff#	16a	16a	.	.	.	.	.	.	.	.	.
16gg	16b-	8g	.	.	.	.	8CC#	.	.	.	4r
16ff#	16a	.	.	.	.	.	.	.	.	.	.
16gg	16b-	8e	.	.	.	.	8CC#	.	.	.	.
16aa	16a	.	.	.	.	.	.	.	.	.	.
=18	=18	=18	=18	=18	=18	=18	=18	=18	=18	=18	=18
16dd	16g	16a	1r	1r	1r	1r	8DD	2gg]	1a	1a	4DD
16cc	16e	16g	.	.	.	.	.	.	.	.	.
16dd	16f#	16a	.	.	.	.	8DD	.	.	.	.
16ee-	16g	16b-	.	.	.	.	.	.	.	.	.
16dd	16a	8a	.	.	.	.	8DD	.	.	.	4r
16cc	16cc	.	.	.	.	.	.	.	.	.	.
16dd	16b-	8d	.	.	.	.	8DD	.	.	.	.
16ee-	16cc	.	.	.	.	.	.	.	.	.	.
16cc	16a	8dd	.	.	.	.	8DD	2ff#	.	.	4DD
16b-	16g	.	.	.	.	.	.	.	.	.	.
16cc	16a	8a	.	.	.	.	8DD	.	.	.	.
16dd	16b-	.	.	.	.	.	.	.	.	.	.
16cc	16a	8f#	.	.	.	.	8DD	.	.	.	4r
16b-	16g	.	.	.	.	.	.	.	.	.	.
16cc	16a	8d	.	.	.	.	8DD	.	.	.	.
16dd	16b-	.	.	.	.	.	.	.	.	.	.
=19	=19	=19	=19	=19	=19	=19	=19	=19	=19	=19	=19
16b-	16g	16d	4gg	4b-	4dd	4G	8GG	4gg	4b-	4b-	4GG
16a	16f#	16c	.	.	.	.	.	.	.	.	.
16b-	16g	16d	.	.	.	.	8GG	.	.	.	.
16cc	16a	16e-	.	.	.	.	.	.	.	.	.
16b-	16g	16d	4r	4r	4r	4r	8GG	4r	2dd	2dd	4r
16a	16f#	16c	.	.	.	.	.	.	.	.	.
16b-	16g	16d	.	.	.	.	8GG	.	.	.	.
16cc	16a	16e-	.	.	.	.	.	.	.	.	.
16b-	16g	16d	4ee-	4b-	4gg	4B-	8GG	[2ee-	.	.	4GG
16a	16f#	16c	.	.	.	.	.	.	.	.	.
16b-	16g	16d	.	.	.	.	8GG	.	.	.	.
16cc	16a	16e-	.	.	.	.	.	.	.	.	.
16b-	16g	16d	4r	4r	4r	4r	8GG	.	4g	4g	4r
16a	16f#	16c	.	.	.	.	.	.	.	.	.
16b-	16g	16d	.	.	.	.	8GG	.	.	.	.
16cc	16a	16e-	.	.	.	.	.	.	.	.	.
=20	=20	=20	=20	=20	=20	=20	=20	=20	=20	=20	=20
16a	16f#	16c	4cc	4a	4ff#	4e-	8GG	4ee-]	[1cc	[1cc	4GG
16g	16e	16B-	.	.	.	.	.	.	.	.	.
16a	16f#	16c	.	.	.	.	8GG	.	.	.	.
16b-	16g	16d	.	.	.	.	.	.	.	.	.
16a	16f#	16c	2r	2r	2r	2r	8GG	4cc	.	.	4r
16g	16e	16B-	.	.	.	.	.	.	.	.	.
16a	16f#	16c	.	.	.	.	8GG	.	.	.	.
16b-	16g	16d	.	.	.	.	.	.	.	.	.
16a	16f#	16c	.	.	.	.	8GG	2f#	.	.	4GG
16g	16e	16B-	.	.	.	.	.	.	.	.	.
16a	16f#	16c	.	.	.	.	8GG	.	.	.	.
16b-	16g	16d	.	.	.	.	.	.	.	.	.
16a	16f#	16c	8f#	8d	8a	8d	8GG	.	.	.	4r
16g	16e	16B-	.	.	.	.	.	.	.	.	.
16a	16f#	16c	8f#	8d	8a	8c	8GG	.	.	.	.
16b-	16g	16d	.	.	.	.	.	.	.	.	.
=21	=21	=21	=21	=21	=21	=21	=21	=21	=21	=21	=21
16g	16d	8G	16g	16d	8g	8B-	8GG	4g	4cc]	4cc]	4GG
16f#	16c	.	16f#	16c	.	.	.	.	.	.	.
16g	16d	8d	16g	16d	16dd	8A	8GG	.	.	.	.
16a	16e-	.	16a	16e-	16cc	.	.	.	.	.	.
16g	16d	8g	16g	16d	8dd	8B-	8GG	2gg	4b-	4b-	4r
16f#	16c	.	16f#	16c	.	.	.	.	.	.	.
16g	16d	8B-	16g	16d	8b-	8G	8GG	.	.	.	.
16d	16g	.	16b-	16g	.	.	.	.	.	.	.
16a	16e-	16c	16a	16e-	16cc	8A	8GG	.	2a	2a	4GG
16g	16d	16B-	16g	16d	16b-	.	.	.	.	.	.
16a	16e-	16c	16a	16e-	16cc	8G	8GG	.	.	.	.
16b-	16f	16d	16b-	16f	16dd	.	.	.	.	.	.
16a	16e-	16c	16a	16e-	16cc	8A	8GG	4ff#	.	.	4r
16g	16d	16B-	16g	16d	16b-	.	.	.	.	.	.
16a	16e-	16c	16a	16e-	16cc	8F#	8GG	.	.	.	.
16cc	16c	16A	16cc	16c	16a	.	.	.	.	.	.
=22	=22	=22	=22	=22	=22	=22	=22	=22	=22	=22	=22
16b-	16g	16d	16b-	16g	16dd	8G	8GG	4gg	4g	4g	4GG
16a	16f#	16c	16a	16f#	16cc	.	.	.	.	.	.
16b-	16g	16d	16b-	16g	16dd	8A	8GG	.	.	.	.
16cc	16a	16e-	16cc	16a	16ee-	.	.	.	.	.	.
16b-	16g	16d	16b-	16g	16dd	8B-	8GG	2ee-	2gg	2gg	4r
16a	16f#	16c	16a	16f#	16cc	.	.	.	.	.	.
16b-	16g	16d	16b-	16g	16dd	8G	8GG	.	.	.	.
16dd	16b-	16B-	16dd	16b-	16b-	.	.	.	.	.	.
16cc	16a	8e-	16cc	16a	8ee-	8c	8GG	.	.	.	4GG
16b-	16g	.	16b-	16g	.	.	.	.	.	.	.
16cc	16a	8c	16cc	16a	8cc	8A	8GG	.	.	.	.
16dd	16b-	.	16dd	16b-	.	.	.	.	.	.	.
16cc	16a	8f#	16cc	16a	8a	8d	8GG	8dd	4ff#	4ff#	4r
16b-	16g	.	16b-	16g	.	.	.	.	.	.	.
16cc	16a	8d	16cc	16a	8ff#	8D	8GG	8cc	.	.	.
16ee-	16f#	.	16ee-	16cc	.	.	.	.	.	.	.
=23	=23	=23	=23	=23	=23	=23	=23	=23	=23	=23	=23
16dd	16b-	8d	8dd	8b-	8dd	8G	8GG	4b-	4gg	4gg	4GG
16cc	16a	.	.	.	.	.	.	.	.	.	.
16dd	16b-	16g	8g	8d	8b-	8GG	8GG	.	.	.	.
16ee-	16cc	16f#	.	.	.	.	.	.	.	.	.
16dd	16b-	8g	2r	2r	2r	2r	8GG	4dd	2r	2r	4r
16cc	16a	.	.	.	.	.	.	.	.	.	.
16dd	16b-	16f	.	.	.	.	8GG	.	.	.	.
16ee-	16cc	16e-	.	.	.	.	.	.	.	.	.
16dd	16b	16f	.	.	.	.	8GG	[2gg	.	.	4GG
16cc	16a	16e-	.	.	.	.	.	.	.	.	.
16dd	16b	16f	.	.	.	.	8GG	.	.	.	.
16ee-	16cc	16g	.	.	.	.	.	.	.	.	.
16dd	16b	8G	4gg	4g	4dd	4B	8GG	.	4ee-	4ee-	4r
16cc	16a	.	.	.	.	.	.	.	.	.	.
16dd	16b	8g	.	.	.	.	8GG	.	.	.	.
16ee-	16g	.	.	.	.	.	.	.	.	.	.
=24	=24	=24	=24	=24	=24	=24	=24	=24	=24	=24	=24
16cc	16ee-	8c	4r	4r	4r	4r	8GG	4gg]	2.aa-	2.aa-	4GG
16b	16dd	.	.	.	.	.	.	.	.	.	.
16cc	16ee-	8e-	.	.	.	.	8GG	.	.	.	.
16dd	16ff	.	.	.	.	.	.	.	.	.	.
16cc	16ee-	8a-	4ee-	4g	4ee-	4c	8GG	4cc	.	.	4r
16b	16dd	.	.	.	.	.	.	.	.	.	.
16cc	16ee-	8e-	.	.	.	.	8GG	.	.	.	.
16dd	16ff	.	.	.	.	.	.	.	.	.	.
16cc	16ee-	8f	4r	4r	4r	4r	8GG	[2ff	.	.	4GG
16b	16dd	.	.	.	.	.	.	.	.	.	.
16cc	16ee-	8c	.	.	.	.	8GG	.	.	.	.
16dd	16ff	.	.	.	.	.	.	.	.	.	.
16cc	16ee-	8a-	4cc	4f	4aa-	4d	8GG	.	4ff	4ff	4r
16b	16dd	.	.	.	.	.	.	.	.	.	.
16cc	16ee-	8f	.	.	.	.	8GG	.	.	.	.
16ee-	16cc	.	.	.	.	.	.	.	.	.	.
=25	=25	=25	=25	=25	=25	=25	=25	=25	=25	=25	=25
16dd	16gg	16b	4r	4r	4r	4r	8GG	2ff]	2b	2b	4GG
16cc	16ff	16a	.	.	.	.	.	.	.	.	.
16dd	16gg	16b	.	.	.	.	8GG	.	.	.	.
16ee-	16aa-	16cc	.	.	.	.	.	.	.	.	.
16dd	16b	8dd	8b	8d	8gg	8G	8GG	.	.	.	4r
16cc	16a	.	.	.	.	.	.	.	.	.	.
16dd	16b	8d	8b	8g	8g	8D	8GG	.	.	.	.
16ee-	16cc	.	.	.	.	.	.	.	.	.	.
16cc	16g	16g	16cc	16g	16cc	8E-	8GG	2ee-	[2cc	[2cc	4GG
16b	16f	16d	16b	16f	16dd	.	.	.	.	.	.
16cc	16g	16e-	16cc	16g	16ee-	8G	8GG	.	.	.	.
16dd	16a-	16f	16dd	16a-	16ff	.	.	.	.	.	.
16cc	16g	16e-	16cc	16g	16ee-	8E-	8GG	.	.	.	4r
16b	16f	16d	16b	16f	16dd	.	.	.	.	.	.
16cc	16g	16e-	16cc	16g	16ee-	8C	8GG	.	.	.	.
16ee-	16cc	16g	16ee-	16e-	16cc	.	.	.	.	.	.
=26	=26	=26	=26	=26	=26	=26	=26	=26	=26	=26	=26
16dd	16f	16a-	16dd	16a-	16ff	8BB	8GG	2.dd	4cc]	4cc]	4GG
16cc	16e-	16g	16cc	16g	16ee-	.	.	.	.	.	.
16dd	16f	16a-	16dd	16a-	16ff	8D	8GG	.	.	.	.
16ee-	16g	16b-	16ee-	16b-	16gg	.	.	.	.	.	.
16dd	16f	16a-	16dd	16a-	16ff	8BB	8GG	.	4b	4b	4r
16cc	16e-	16g	16cc	16g	16ee-	.	.	.	.	.	.
16dd	16f	16a-	16dd	16a-	16ff	8GG	8GG	.	.	.	.
16ff	16d	16f	16ff	16f	16aa-	.	.	.	.	.	.
16ee-	16g	8cc	16ee-	16g	8gg	8C	8GG	.	[2ee-	[2ee-	4GG
16dd	16f	.	16dd	16f	.	.	.	.	.	.	.
16ee-	16g	8g	16ee-	16g	8b	8D	8GG	.	.	.	.
16ff	16a-	.	16ff	16a-	.	.	.	.	.	.	.
16ee-	16g	8e-	16ee-	16g	8cc	8E-	8GG	4cc	.	.	4r
16dd	16f	.	16dd	16f	.	.	.	.	.	.	.
16ee-	16g	[8c	16ee-	16g	8cc	8C	8GG	.	.	.	.
16gg	16e-	.	16gg	16e-	.	.	.	.	.	.	.
=27	=27	=27	=27	=27	=27	=27	=27	=27	=27	=27	=27
16ff	16a-	8c]	16ff	8a-	8cc	16D	8GG	2ff	4ee-]	4ee-]	4GG
16ee-	16g	.	16ee-	.	.	16C	.	.	.	.	.
16ff	16a-	4B	16ff	8g	8b	16D	8GG	.	.	.	.
16gg	16g	.	16gg	.	.	16E-	.	.	.	.	.
16ff	16a-	.	16ff	8a-	8b	16D	8GG	.	2dd	2dd	4r
16ee-	16g	.	16ee-	.	.	16C	.	.	.	.	.
16ff	16a-	4d	16ff	8d	8dd	16D	8GG	.	.	.	.
16aa-	16f	.	16aa-	.	.	16F	.	.	.	.	.
16gg	16b	.	8gg	8g	8dd	8E-	8GG	[2ee-	.	.	4GG
16ff	16dd	.	.	.	.	.	.	.	.	.	.
16gg	16cc	8G	8cc	8e-	8g	8C	8GG	.	.	.	.
16aa-	16b	.	.	.	.	.	.	.	.	.	.
16gg	16cc	16e-	8cc	8g	8ee-	8c	8GG	.	4cc	4cc	4r
16ff#	16dd	16d	.	.	.	.	.	.	.	.	.
16gg	16cc	16e-	8dd	8g	8dd	8B-	8GG	.	.	.	.
16ccc	16dd	16d	.	.	.	.	.	.	.	.	.
=28	=28	=28	=28	=28	=28	=28	=28	=28	=28	=28	=28
16ff#	16ee-	8c	4ee-	4f#	4cc	8A	8GG	2ee-]	4ff#	4ff#	4GG
16ee	16b-	.	.	.	.	.	.	.	.	.	.
16ff#	16cc	16e-	.	.	.	8B-	8GG	.	.	.	.
16aa	16dd	16d	.	.	.	.	.	.	.	.	.
16cc	16ee-	8c	8r	8r	8r	8A	8GG	.	4gg	4gg	4r
16b-	16dd	.	.	.	.	.	.	.	.	.	.
16cc	16ee-	8g	8ee-	8cc	8g	8G	8GG	.	.	.	.
16ee-	16cc	.	.	.	.	.	.	.	.	.	.
16a	16dd	16f#	8dd	8a	8dd	8F#	8GG	4dd	[2aa	[2aa	4GG
16g	16cc	16e	.	.	.	.	.	.	.	.	.
16a	16dd	16f#	8cc	8f#	8dd	8A	8GG	.	.	.	.
16b-	16ee-	16g	.	.	.	.	.	.	.	.	.
16a	16dd	16f#	8dd	8d	8a	8F#	8GG	4cc	.	.	4r
16g	16cc	16e	.	.	.	.	.	.	.	.	.
16a	16dd	16f#	8a	8f#	8dd	8D	8GG	.	.	.	.
16f#	16ee-	16a	.	.	.	.	.	.	.	.	.
=29	=29	=29	=29	=29	=29	=29	=29	=29	=29	=29	=29
16b-	16dd	16d	16b-	16g	16dd	8G	8GG	2b-	2aa]	2aa]	4GG
16a	16ee-	16f#	16a	16f#	16cc	.	.	.	.	.	.
16b-	16dd	16g	16b-	16g	16dd	8GG	8GG	.	.	.	.
16cc	16cc	16a	16cc	16a	16ee-	.	.	.	.	.	.
16b-	16dd	16g	16b-	16g	16dd	8BB-	8GG	.	.	.	4r
16a	16ee-	16f#	16a	16f#	16cc	.	.	.	.	.	.
16b-	16dd	16g	16b-	16g	16dd	8D	8GG	.	.	.	.
16cc	16cc	16a	16cc	16a	16ee-	.	.	.	.	.	.
16dd	16b-	8b-	8dd	8b-	8dd	8G	8GG	[2bb-	4gg	4gg	4GG
16cc#	16a	.	.	.	.	.	.	.	.	.	.
16dd	16b-	8g	16b-	16g	16dd	16G	8GG	.	.	.	.
16gg	16cc	.	16g	16g	16cc	16A	.	.	.	.	.
16dd	16b-	8g	8gg	8g	8dd	8B-	8GG	.	4ff	4ff	4r
16cc#	16a	.	.	.	.	.	.	.	.	.	.
16dd	16b-	8d	8gg	8b-	8dd	16B-	8GG	.	.	.	.
16gg	16d	.	.	.	.	16A	.	.	.	.	.
=30	=30	=30	=30	=30	=30	=30	=30	=30	=30	=30	=30
16cc#	16e	8g	16cc#	16e	[4gg	16G	8GG	4bb-]	2ee	2ee	4GG
16b	16d	.	16b	16d	.	16A	.	.	.	.	.
16cc#	16e	8b-	16cc#	16e	.	16G	8GG	.	.	.	.
16dd	16f	.	16dd	16f	.	16F	.	.	.	.	.
16cc#	16g	16e	16cc#	16g	16gg]	16E	8GG	4gg	.	.	4r
16b	16f	16d	16b	16f	16aa	16F	.	.	.	.	.
16cc#	16g	16e	16cc#	16g	16gg	16E	8GG	.	.	.	.
16dd	16a	16f	16dd	16a	16ff	16D	.	.	.	.	.
16ee	16b-	16g	8ee	8b-	8ee	8C#	8GG	2ee	4gg	4gg	4GG
16dd	16a	16f#	.	.	.	.	.	.	.	.	.
16ee	16b-	16g	8g	8e	8ee	8C#	8GG	.	.	.	.
16ff#	16cc	16a	.	.	.	.	.	.	.	.	.
16ee	16b-	16g	8b-	8e	8g	8C#	8GG	.	4b-	4b-	4r
16dd	16a	16f#	.	.	.	.	.	.	.	.	.
16ee	16b-	16g	8a	8e	8g	8C#	8GG	.	.	.	.
16ff#	16cc	16a	.	.	.	.	.	.	.	.	.
=31	=31	=31	=31	=31	=31	=31	=31	=31	=31	=31	=31
16dd	16a	16f#	4f#	4A	4dd	4D	8DD	4ff#	4a	4a	4DD
16cc	16g	16e	.	.	.	.	.	.	.	.	.
16dd	16a	16f#	.	.	.	.	8DD	.	.	.	.
16ee-	16b-	16g	.	.	.	.	.	.	.	.	.
16cc	16a	8f#	2.r	2.r	2.r	2.r	8DD	4dd	2aa	2aa	4r
16b-	16g	.	.	.	.	.	.	.	.	.	.
16cc	16a	8A	.	.	.	.	8DD	.	.	.	.
16dd	16b-	.	.	.	.	.	.	.	.	.	.
16b-	16g	16d	.	.	.	.	8DD	[2bb-	.	.	4DD
16a	16f#	16c	.	.	.	.	.	.	.	.	.
16b-	16g	16d	.	.	.	.	8DD	.	.	.	.
16cc	16a	16e-	.	.	.	.	.	.	.	.	.
16a	16f	16c	.	.	.	.	8DD	.	4dd	4dd	4r
16g	16e	16B-	.	.	.	.	.	.	.	.	.
16a	16f	16c	.	.	.	.	8DD	.	.	.	.
16b-	16g	16d	.	.	.	.	.	.	.	.	.
=32	=32	=32	=32	=32	=32	=32	=32	=32	=32	=32	=32
16g	16e	16B-	1r	1r	1r	1r	8DD	4bb-]	2.gg	2.gg	4DD
16f	16d	16A	.	.	.	.	.	.	.	.	.
16g	16e	16B-	.	.	.	.	8DD	.	.	.	.
16a	16f	16c	.	.	.	.	.	.	.	.	.
16g	16e	16B-	.	.	.	.	8DD	4gg	.	.	4r
16f	16d	16A	.	.	.	.	.	.	.	.	.
16g	16e	16B-	.	.	.	.	8DD	.	.	.	.
16a	16f	16c	.	.	.	.	.	.	.	.	.
16b-	16g	8B-	.	.	.	.	8DD	2cc#	.	.	4DD
16a	16f#	.	.	.	.	.	.	.	.	.	.
16g	16g	8b-	.	.	.	.	8DD	.	.	.	.
16f#	16a	.	.	.	.	.	.	.	.	.	.
16e	16g	8B-	.	.	.	.	8DD	.	4b-	4b-	4r
16d	16f#	.	.	.	.	.	.	.	.	.	.
16e	16g	8G	.	.	.	.	8DD	.	.	.	.
16g	16e	.	.	.	.	.	.	.	.	.	.
=33	=33	=33	=33	=33	=33	=33	=33	=33	=33	=33	=33
8f#	8a	8d	1r	1r	2r	4d	16DD	4dd	4a	4a	16DD
.	.	.	.	.	.	.	16CC	.	.	.	16CC
8r	8r	8r	.	.	.	.	16DD	.	.	.	16DD
.	.	.	.	.	.	.	16EE-	.	.	.	16EE-
8g	8b-	8d	.	.	.	8D	16DD	2r	4dd	4dd	16DD
.	.	.	.	.	.	.	16CC	.	.	.	16CC
8r	8r	8r	.	.	.	8E	16DD	.	.	.	16DD
.	.	.	.	.	.	.	16EE-	.	.	.	16EE-
8a	8f#	8d	.	.	4dd	8F#	16DD	.	4cc	4cc	16DD
.	.	.	.	.	.	.	16CC	.	.	.	16CC
8r	8r	8r	.	.	.	4B-	16DD	.	.	.	16DD
.	.	.	.	.	.	.	16EE-	.	.	.	16EE-
8b-	8g	8d	.	.	8d	.	16DD	4dd	4b-	4b-	16DD
.	.	.	.	.	.	.	16CC	.	.	.	16CC
8r	8r	8r	.	.	8e	16A	16DD	.	.	.	16DD
.	.	.	.	.	.	16G	16EE-	.	.	.	16EE-
=34	=34	=34	=34	=34	=34	=34	=34	=34	=34	=34	=34
8cc	8f#	8a	1r	4dd	8f#	8A	16DD	4cc	4a	4a	16DD
.	.	.	.	.	.	.	16CC	.	.	.	16CC
8r	8r	8r	.	.	4b-	4d	16DD	.	.	.	16DD
.	.	.	.	.	.	.	16EE-	.	.	.	16EE-
8dd	8b-	8g	.	8d	.	.	16DD	4b-	4g	4g	16DD
.	.	.	.	.	.	.	16CC	.	.	.	16CC
8r	8r	8r	.	8e	16a	16c	16DD	.	.	.	16DD
.	.	.	.	.	16g	16B-	16EE-	.	.	.	16EE-
8ee-	8a	8c	.	8f#	8a	8c	16DD	4a	4f#	4f#	16DD
.	.	.	.	.	.	.	16CC	.	.	.	16CC
8r	8r	8r	.	4a	4cc	8A	16DD	.	.	.	16DD
.	.	.	.	.	.	.	16EE	.	.	.	16EE
8dd	8f#	8A	.	.	.	8F#	16FF#	4cc	4a	4a	16FF#
.	.	.	.	.	.	.	16EE	.	.	.	16EE
8r	8r	8r	.	16g	16b-	8D	16FF#	.	.	.	16FF#
.	.	.	.	16f#	16a	.	16DD	.	.	.	16DD
=35	=35	=35	=35	=35	=35	=35	=35	=35	=35	=35	=35
8dd	8b-	8G	4gg	8g	8b-	8G	16GG	4b-	4g	4g	16GG
.	.	.	.	.	.	.	16FF#	.	.	.	16FF#
8r	8r	8r	.	8d	8g	8GG	16GG	.	.	.	16GG
.	.	.	.	.	.	.	16AA	.	.	.	16AA
8cc	8g	8e-	8g	2.r	4r	2.r	16GG	4gg	2r	2r	16GG
.	.	.	.	.	.	.	16FF#	.	.	.	16FF#
8r	8r	8r	8a	.	.	.	16GG	.	.	.	16GG
.	.	.	.	.	.	.	16AA	.	.	.	16AA
8dd	8b	8g	8b	.	4gg	.	16GG	4ff	.	.	16GG
.	.	.	.	.	.	.	16FF#	.	.	.	16FF#
8r	8r	8r	4ee-	.	.	.	16GG	.	.	.	16GG
.	.	.	.	.	.	.	16AA	.	.	.	16AA
8ee-	8cc	8g	.	.	8g	.	16GG	4ee-	4gg	4gg	16GG
.	.	.	.	.	.	.	16FF#	.	.	.	16FF#
8r	8r	8r	16dd	.	8a	.	16GG	.	.	.	16GG
.	.	.	16cc	.	.	.	16AA	.	.	.	16AA
=36	=36	=36	=36	=36	=36	=36	=36	=36	=36	=36	=36
8ff	8b	8d	8dd	4g	8b	1r	16GG	4dd	4ff	4ff	16GG
.	.	.	.	.	.	.	16FF#	.	.	.	16FF#
8r	8r	8r	4gg	.	4ee-	.	16GG	.	.	.	16GG
.	.	.	.	.	.	.	16AA	.	.	.	16AA
8gg	8ee-	8c	.	8g	.	.	16GG	4cc	4ee-	4ee-	16GG
.	.	.	.	.	.	.	16FF#	.	.	.	16FF#
8r	8r	8r	16ff	8a	16dd	.	16GG	.	.	.	16GG
.	.	.	16ee-	.	16cc	.	16AA	.	.	.	16AA
8aa-	8dd	8f	8ff	8b	8dd	.	16GG	4b	4dd	4dd	16GG
.	.	.	.	.	.	.	16FF#	.	.	.	16FF#
8r	8r	8r	8dd	4dd	4ff	.	16GG	.	.	.	16GG
.	.	.	.	.	.	.	16AA	.	.	.	16AA
8gg	8b	8d	8b	.	.	.	16BB	4dd	4ff	4ff	16BB
.	.	.	.	.	.	.	16AA	.	.	.	16AA
8r	8r	8r	8g	16cc	16ee-	.	16BB	.	.	.	16BB
.	.	.	.	16b	16dd	.	16GG	.	.	.	16GG
=37	=37	=37	=37	=37	=37	=37	=37	=37	=37	=37	=37
8gg	8cc	16e-	8gg	8cc	8ee-	8r	8C	4cc	1ee-	1ee-	8C
.	.	16f	.	.	.	.	.	.	.	.	.
8.ee-	8.cc	16e-	8ee-	8g	8cc	8C	8C	.	.	.	8C
.	.	16d	.	.	.	.	.	.	.	.	.
.	.	8c	4.r	4r	4r	8D	8C	4r	.	.	8C
16ff	16dd	.	.	.	.	.	.	.	.	.	.
16ee-	16cc	8G	.	.	.	8E-	8C	.	.	.	8C
16dd	16dd	.	.	.	.	.	.	.	.	.	.
8cc	8ee-	16r	.	4f	4cc	16F	8FF	[2aa	.	.	8FF
.	.	16G	.	.	.	16E-	.	.	.	.	.
8.ff	8.cc	16A	8a	.	.	16F	8FF	.	.	.	8FF
.	.	16c	.	.	.	16A	.	.	.	.	.
.	.	[4f	8b-	4r	4r	16G	8FF	.	.	.	8FF
16gg	16ee-	.	.	.	.	16B-	.	.	.	.	.
16ff	16dd	.	8cc	.	.	16A	8FF	.	.	.	8FF
16ee-	16cc	.	.	.	.	16c	.	.	.	.	.
=38	=38	=38	=38	=38	=38	=38	=38	=38	=38	=38	=38
8dd	8dd	16f]	16dd	4f	4b-	8B-	8BB-	2aa]	1dd	1dd	8BB-
.	.	16e-	16cc	.	.	.	.	.	.	.	.
8.dd	8.b-	16d	16dd	.	.	8BB-	8BB-	.	.	.	8BB-
.	.	16c	16ff	.	.	.	.	.	.	.	.
.	.	8B-	16ee	4r	4r	8C	8BB-	.	.	.	8BB-
16ee-	16cc	.	16gg	.	.	.	.	.	.	.	.
16dd	16b-	8F#	16ff#	.	.	8D	8BB-	.	.	.	8BB-
16cc	16cc	.	16aa	.	.	.	.	.	.	.	.
8b-	8dd	16r	8gg	4e-	4b-	16E-	8EE-	[2gg	.	.	8EE-
.	.	16F#	.	.	.	16D	.	.	.	.	.
8.ee-	8.b-	16G	8g	.	.	16E-	8EE-	.	.	.	8EE-
.	.	16B-	.	.	.	16G	.	.	.	.	.
.	.	[4e-	8a	4r	4r	16F#	8EE-	.	.	.	8EE-
16ff	16dd	.	.	.	.	16A	.	.	.	.	.
16ee-	16cc	.	8b-	.	.	16G	8EE-	.	.	.	8EE-
16dd	16b-	.	.	.	.	16B-	.	.	.	.	.
=39	=39	=39	=39	=39	=39	=39	=39	=39	=39	=39	=39
8cc	8cc	16e-]	16cc	4e-	4a	8A	8AA	2gg]	1cc	1cc	8AA
.	.	16d	16b-	.	.	.	.	.	.	.	.
8.cc	8.a	16c	16cc	.	.	8AA	8AA	.	.	.	8AA
.	.	16B-	16ee-	.	.	.	.	.	.	.	.
.	.	8A	16dd	4.r	4.r	8BB-	8AA	.	.	.	8AA
16dd	16b-	.	16ff	.	.	.	.	.	.	.	.
16cc	16a	8E	16ee	.	.	8C	8AA	.	.	.	8AA
16b-	16b-	.	16gg	.	.	.	.	.	.	.	.
8a	8cc	16r	8ff#	.	.	16D	8DD	2ff#	.	.	8DD
.	.	16E	.	.	.	16C	.	.	.	.	.
8.dd	8.a	16F#	8dd	8f#	8a	16D	8DD	.	.	.	8DD
.	.	16A	.	.	.	16E	.	.	.	.	.
.	.	[4d	8a	8a	8dd	8F#	8DD	.	.	.	8DD
16ee-	16cc	.	.	.	.	.	.	.	.	.	.
16dd	16b-	.	8dd	8f#	8a	8D	8DD	.	.	.	8DD
16cc	16a	.	.	.	.	.	.	.	.	.	.
=40	=40	=40	=40	=40	=40	=40	=40	=40	=40	=40	=40
16b-	16g	16d]	8b-	8d	8b-	8G	8GG	4gg	4b-	4b-	4GG
16a	16f#	16c	.	.	.	.	.	.	.	.	.
16b-	16g	16d	8g	8d	8b-	8GG	8GG	.	.	.	.
16cc	16a	16e-	.	.	.	.	.	.	.	.	.
16b-	16g	16d	4gg	4dd	4g	4B-	8GG	4r	2dd	2dd	4r
16a	16f#	16c	.	.	.	.	.	.	.	.	.
16b-	16g	16d	.	.	.	.	8GG	.	.	.	.
16cc	16a	16e-	.	.	.	.	.	.	.	.	.
16b-	16g	16d	4r	4r	4r	4r	8GG	[2ee-	.	.	4GG
16a	16f#	16c	.	.	.	.	.	.	.	.	.
16b-	16g	16d	.	.	.	.	8GG	.	.	.	.
16cc	16a	16e-	.	.	.	.	.	.	.	.	.
16b-	16g	16d	4ee-	4b-	4gg	4G	8GG	.	4g	4g	4r
16a	16f#	16c	.	.	.	.	.	.	.	.	.
16b-	16g	16d	.	.	.	.	8GG	.	.	.	.
16cc	16a	16e-	.	.	.	.	.	.	.	.	.
=41	=41	=41	=41	=41	=41	=41	=41	=41	=41	=41	=41
16a	16f#	16c	4r	4r	4r	4r	8GG	4ee-]	[1cc	[1cc	4GG
16g	16e	16B-	.	.	.	.	.	.	.	.	.
16a	16f#	16c	.	.	.	.	8GG	.	.	.	.
16b-	16g	16d	.	.	.	.	.	.	.	.	.
16a	16f#	16c	4cc	4a	4ff#	4e-	8GG	4cc	.	.	4r
16g	16e	16B-	.	.	.	.	.	.	.	.	.
16a	16f#	16c	.	.	.	.	8GG	.	.	.	.
16b-	16g	16d	.	.	.	.	.	.	.	.	.
16a	16f#	16c	4r	4r	4r	4r	8GG	2f#	.	.	4GG
16g	16e	16B-	.	.	.	.	.	.	.	.	.
16a	16f#	16c	.	.	.	.	8GG	.	.	.	.
16b-	16g	16d	.	.	.	.	.	.	.	.	.
16a	16f#	16c	8f#	8d	8a	8d	8GG	.	.	.	4r
16g	16e	16B-	.	.	.	.	.	.	.	.	.
16a	16f#	16c	8f#	8d	8a	8c	8GG	.	.	.	.
16b-	16g	16d	.	.	.	.	.	.	.	.	.
=42	=42	=42	=42	=42	=42	=42	=42	=42	=42	=42	=42
16g	16d	8G	16g	16d	8g	8B-	8GG	4g	4cc]	4cc]	4GG
16f#	16c	.	16f#	16c	.	.	.	.	.	.	.
16g	16d	8d	16g	16d	16dd	8A	8GG	.	.	.	.
16a	16e-	.	16a	16e-	16cc	.	.	.	.	.	.
16g	16d	8g	16g	16d	8dd	8B-	8GG	2gg	4b-	4b-	4r
16f#	16c	.	16f#	16c	.	.	.	.	.	.	.
16g	16d	8B-	16g	16d	8b-	8G	8GG	.	.	.	.
16d	16g	.	16b-	16g	.	.	.	.	.	.	.
16a	16e-	16c	16a	16e-	16cc	8A	8GG	.	2a	2a	4GG
16g	16d	16B-	16g	16d	16b-	.	.	.	.	.	.
16a	16e-	16c	16a	16e-	16cc	8G	8GG	.	.	.	.
16b-	16f	16d	16b-	16f	16dd	.	.	.	.	.	.
16a	16e-	16c	16a	16e-	16cc	8A	8GG	4ff#	.	.	4r
16g	16d	16B-	16g	16d	16b-	.	.	.	.	.	.
16a	16e-	16c	16a	16e-	16cc	8F#	8GG	.	.	.	.
16cc	16c	16A	16cc	16c	16a	.	.	.	.	.	.
=43	=43	=43	=43	=43	=43	=43	=43	=43	=43	=43	=43
16b-	16g	16d	16b-	16g	16dd	8G	8GG	4gg	4g	4g	4GG
16a	16f#	16c	16a	16f#	16cc	.	.	.	.	.	.
16b-	16g	16d	16b-	16g	16dd	8A	8GG	.	.	.	.
16cc	16a	16e-	16cc	16a	16ee-	.	.	.	.	.	.
16b-	16g	16d	16b-	16g	16dd	8B-	8GG	2ee-	2gg	2gg	4r
16a	16f#	16c	16a	16f#	16cc	.	.	.	.	.	.
16b-	16g	16d	16b-	16g	16dd	8G	8GG	.	.	.	.
16dd	16b-	16B-	16dd	16b-	16b-	.	.	.	.	.	.
16cc	16a	8e-	16cc	16a	8ee-	8c	8GG	.	.	.	4GG
16b-	16g	.	16b-	16g	.	.	.	.	.	.	.
16cc	16a	8c	16cc	16a	8cc	8A	8GG	.	.	.	.
16dd	16b-	.	16dd	16b-	.	.	.	.	.	.	.
16cc	16a	8f#	16cc	16a	8a	8d	8GG	8dd	4ff#	4ff#	4r
16b-	16g	.	16b-	16g	.	.	.	.	.	.	.
16cc	16a	[8d	16cc	16a	8ff#	8D	8GG	8cc	.	.	.
16ee-	16f#	.	16ee-	16cc	.	.	.	.	.	.	.
=44	=44	=44	=44	=44	=44	=44	=44	=44	=44	=44	=44
16dd	16b-	8d]	8dd	8b-	8dd	8G	8GG	4b-	4gg	4gg	4GG
16cc	16a	.	.	.	.	.	.	.	.	.	.
16dd	16b-	16g	8g	8d	8b-	8GG	8GG	.	.	.	.
16ee-	16cc	16f#	.	.	.	.	.	.	.	.	.
16dd	16b-	8g	8dd	8g	8b-	8G	8GG	4gg	4g	4g	4r
16cc	16a	.	.	.	.	.	.	.	.	.	.
16dd	16b-	4d	16ff	8g	8b-	8G	8GG	.	.	.	.
16ee-	16cc	.	16ee-	.	.	.	.	.	.	.	.
16dd	16b	.	4ff	4b	4dd	4A-	8GG	2ff	[2dd	[2dd	4GG
16cc	16a	.	.	.	.	.	.	.	.	.	.
16dd	16b	8f	.	.	.	.	8GG	.	.	.	.
16ee-	16cc	.	.	.	.	.	.	.	.	.	.
16dd	16b	8a-	8r	8r	8r	8r	8GG	.	.	.	4r
16cc	16a	.	.	.	.	.	.	.	.	.	.
16dd	16b	8B	8ff	8g	8b	8G	8GG	.	.	.	.
16b	16dd	.	.	.	.	.	.	.	.	.	.
=45	=45	=45	=45	=45	=45	=45	=45	=45	=45	=45	=45
16g	16e-	8c	8ee-	4g	8cc	8c	8GG	[1ee-	2dd]	2dd]	4GG
16f	16d	.	.	.	.	.	.	.	.	.	.
16g	16e-	8G	8dd	.	8g	8B-	8GG	.	.	.	.
16a-	16f	.	.	.	.	.	.	.	.	.	.
16g	16e-	8c	8cc	4g	8cc	8A	8GG	.	.	.	4r
16f	16d	.	.	.	.	.	.	.	.	.	.
16g	16e-	8G	8b-	.	8dd	8B-	8GG	.	.	.	.
16a-	16f	.	.	.	.	.	.	.	.	.	.
16g	16e-	8c	8a	8cc	8ee-	8c	8GG	.	2cc	2cc	4GG
16f#	16d	.	.	.	.	.	.	.	.	.	.
16g	16e-	8G	8g	8b-	8dd	8d	8GG	.	.	.	.
16a	16f	.	.	.	.	.	.	.	.	.	.
16g	16e-	8c	8a	8a	8cc	8e-	8GG	.	.	.	4r
16f#	16d	.	.	.	.	.	.	.	.	.	.
16g	16e-	8G	8b-	8g	8b-	8G	8GG	.	.	.	.
16b-	16f	.	.	.	.	.	.	.	.	.	.
=46	=46	=46	=46	=46	=46	=46	=46	=46	=46	=46	=46
16a	16e-	16c	8cc	8a	8ee-	8F#	8GG	2ee-]	4ff#	4ff#	4GG
16g	16d	16B-	.	.	.	.	.	.	.	.	.
16a	16e-	16c	8b-	8d	8dd	8G	8GG	.	.	.	.
16b-	16f	16d	.	.	.	.	.	.	.	.	.
16a	16e-	16c	8a	8e-	8cc	8A	8GG	.	4gg	4gg	4r
16g	16d	16B-	.	.	.	.	.	.	.	.	.
16a	16e-	16c	8g	8d	8dd	8B-	8GG	.	.	.	.
16b-	16g	16d	.	.	.	.	.	.	.	.	.
16a	16f#	16c	4f#	4d	4a	8c	8GG	4dd	[2aa	[2aa	4GG
16g	16e	16B-	.	.	.	.	.	.	.	.	.
16a	16f#	16c	.	.	.	8A	8GG	.	.	.	.
16b-	16g	16d	.	.	.	.	.	.	.	.	.
16a	16f#	8A	4dd	4r	4r	8F#	8GG	4cc	.	.	4r
16g	16e	.	.	.	.	.	.	.	.	.	.
16a	16f#	8d	.	.	.	8D	8GG	.	.	.	.
16f#	16a	.	.	.	.	.	.	.	.	.	.
=47	=47	=47	=47	=47	=47	=47	=47	=47	=47	=47	=47
16b-	16g	16d	4r	4dd	4r	4G	8GG	2b-	2aa]	2aa]	4GG
16a	16f#	16c	.	.	.	.	.	.	.	.	.
16b-	16g	16d	.	.	.	.	8GG	.	.	.	.
16cc	16a	16e-	.	.	.	.	.	.	.	.	.
16b-	16g	16d	16dd	4r	4dd	4r	8GG	.	.	.	4r
16a	16f#	16e-	16cc	.	.	.	.	.	.	.	.
16b-	16g	16d	16b-	.	.	.	8GG	.	.	.	.
16cc	16a	16c	16a	.	.	.	.	.	.	.	.
16b-	16d	16g	8b-	16dd	4r	4d	8GG	[2bb-	4gg	4gg	4GG
16a	16c	16f#	.	16cc	.	.	.	.	.	.	.
16b-	16d	16g	8g	16b-	.	.	8GG	.	.	.	.
16a	16e-	16a	.	16a	.	.	.	.	.	.	.
16b-	16d	16g	4r	8b-	16dd	4r	8GG	.	4ff	4ff	4r
16a	16c	16f#	.	.	16cc	.	.	.	.	.	.
16b-	16d	16g	.	8g	16b-	.	8GG	.	.	.	.
16dd	16b-	16d	.	.	16a	.	.	.	.	.	.
=48	=48	=48	=48	=48	=48	=48	=48	=48	=48	=48	=48
16b-	16g	8g	4gg	4r	8b-	16d	8GG	4bb-]	2ee	2ee	4GG
16a	16f	.	.	.	.	16c	.	.	.	.	.
16b-	16g	8G	.	.	8g	16B-	8GG	.	.	.	.
16dd	16b-	.	.	.	.	16A	.	.	.	.	.
16cc#	16e	16g	4.r	4e	4r	8B-	8GG	4gg	.	.	4r
16b	16d	16f	.	.	.	.	.	.	.	.	.
16cc#	16e	16g	.	.	.	8G	8GG	.	.	.	.
16dd	16g	16b-	.	.	.	.	.	.	.	.	.
16ee	16b-	16g	.	8r	4b-	8r	8GG	2cc#	[2gg	[2gg	4GG
16dd	16a	16f	.	.	.	.	.	.	.	.	.
16ee	16b-	16g	8ee	8g	.	8G	8GG	.	.	.	.
16ff	16cc	16a	.	.	.	.	.	.	.	.	.
16ee	16b-	16g	8.cc#	8.e	8g	8B-	8GG	.	.	.	4r
16dd	16a	16f	.	.	.	.	.	.	.	.	.
16ee	16b-	16g	.	.	8b-	8G	8GG	.	.	.	.
16ff	16cc	16a	16dd	16d	.	.	.	.	.	.	.
=49	=49	=49	=49	=49	=49	=49	=49	=49	=49	=49	=49
16dd	16a	16d	8dd	8d	8a	8d	8D	2dd	2gg]	2gg]	4D
16cc	16g	16e-	.	.	.	.	.	.	.	.	.
16dd	16a	16d	8a	8d	8a	8D	8D	.	.	.	.
16ee-	16b-	16c	.	.	.	.	.	.	.	.	.
16dd	16a	16d	2.r	8d	2r	2.r	8D	.	.	.	4r
16cc	16g	16e-	.	.	.	.	.	.	.	.	.
16dd	16a	16d	.	8d	.	.	8D	.	.	.	.
16ee-	16b-	16c	.	.	.	.	.	.	.	.	.
16dd	16a	16d	.	8a	.	.	8D	[2ccc	4ff#	4ff#	4D
16cc	16g	16e	.	.	.	.	.	.	.	.	.
16dd	16a	16f#	.	8a	.	.	8D	.	.	.	.
16ee-	16b-	16g	.	.	.	.	.	.	.	.	.
16cc	16a	16a	.	8a	8a	.	8D	.	4ee	4ee	4r
16b-	16g	16b-	.	.	.	.	.	.	.	.	.
16cc	16a	16a	.	8a	8a	.	8D	.	.	.	.
16ee-	16b-	16g	.	.	.	.	.	.	.	.	.
=50	=50	=50	=50	=50	=50	=50	=50	=50	=50	=50	=50
16dd	16a	16f#	4r	16a	8dd	2.r	8DD	2ccc]	2ff#	2ff#	4DD
16cc	16g	16e	.	16g	.	.	.	.	.	.	.
16dd	16a	16f#	.	16a	8dd	.	8DD	.	.	.	.
16ee-	16b-	16g	.	16b-	.	.	.	.	.	.	.
16dd	16a	8f#	8a	16a	8dd	.	8DD	.	.	.	4r
16cc	16g	.	.	16b-	.	.	.	.	.	.	.
16dd	16a	8.d	8a	16a	8dd	.	8DD	.	.	.	.
16ee-	16b-	.	.	16g	.	.	.	.	.	.	.
16dd	16a-	.	8dd	16f	16dd	.	8DD	4bb	[2ff	[2ff	4DD
16cc	16g	16e-	.	16e-	16cc	.	.	.	.	.	.
16dd	16a-	16f	8dd	16f	16dd	.	8DD	.	.	.	.
16ee-	16g	16e-	.	16g	16ee-	.	.	.	.	.	.
16dd	16f	16f	8dd	16f	16dd	8D	8DD	4aa	.	.	4r
16cc	16ee-	16e-	.	16g	16ee-	.	.	.	.	.	.
16dd	16dd	16f	8dd	16f	16dd	8D	8DD	.	.	.	.
16ee-	16cc	16g	.	16e-	16cc	.	.	.	.	.	.
=51	=51	=51	=51	=51	=51	=51	=51	=51	=51	=51	=51
16dd	16b	8a-	16dd	8d	16b	8G	8GG	2bb	2ff]	2ff]	8GG
16cc	16a	.	16cc	.	16a	.	.	.	.	.	.
16dd	16b	8d	16dd	8d	16b	8G	8GG	.	.	.	8GG
16ee-	16cc	.	16ee-	.	16cc	.	.	.	.	.	.
16dd	16b	8a-	16dd	8d	16b	8G	8GG	.	.	.	8GG
16cc	16cc	.	16ee-	.	16cc	.	.	.	.	.	.
16dd	16b	8d	16dd	8d	16b	8G	8GG	.	.	.	8GG
16ff	16a	.	16cc	.	16a	.	.	.	.	.	.
16g	16g	8g	16b-	8g	8g	16G	8GG	[2bb-	4ee	4ee	8GG
16f	16a	.	16a	.	.	16F	.	.	.	.	.
16g	16b-	8B-	16b-	8g	8g	16G	8GG	.	.	.	8GG
16a	16cc	.	16cc	.	.	16A	.	.	.	.	.
16b-	16dd	8g	16b-	8g	8g	16G	8GG	.	4dd	4dd	8GG
16a	16cc	.	16cc	.	.	16A	.	.	.	.	.
16b-	16dd	8B-	16b-	8g	8g	16G	8GG	.	.	.	8GG
16dd	16ff	.	16a	.	.	16F	.	.	.	.	.
=52	=52	=52	=52	=52	=52	=52	=52	=52	=52	=52	=52
16cc	16g	16c	8g	16g	8cc	16E	8C	2bb-]	2ee	2ee	8C
16b-	16f	16d	.	16f	.	16D	.	.	.	.	.
16cc	16g	16e	8g	16g	8cc	16E	8C	.	.	.	8C
16dd	16a	16f	.	16a	.	16F	.	.	.	.	.
16cc	16g	16e	8g	16g	8cc	16E	8C	.	.	.	8C
16b-	16f	16d	.	16a	.	16F	.	.	.	.	.
16cc	16g	16e	8g	16g	8cc	16E	8C	.	.	.	8C
16dd	16f	16g	.	16f	.	16D	.	.	.	.	.
16cc	16e-	8a	8cc	16e-	16cc	8C	8C	4aa	[2ee-	[2ee-	8C
16b-	16g	.	.	16d	16b-	.	.	.	.	.	.
16cc	16a	8c	8cc	16e-	16cc	8C	8C	.	.	.	8C
16dd	16b-	.	.	16f	16dd	.	.	.	.	.	.
16ee-	16cc	8cc	8cc	16e-	16cc	8C	8C	4gg	.	.	8C
16ff	16dd	.	.	16f	16dd	.	.	.	.	.	.
16ee-	16cc	8e-	8cc	16e-	16cc	8C	8C	.	.	.	8C
16dd	16b-	.	.	16d	16b-	.	.	.	.	.	.
=53	=53	=53	=53	=53	=53	=53	=53	=53	=53	=53	=53
16cc	16a	8f	16cc	8c	16a	8F	8FF	2aa	2ee-]	2ee-]	8FF
16b-	16g	.	16b-	.	16g	.	.	.	.	.	.
16cc	16a	8c	16cc	8c	16a	8F	8FF	.	.	.	8FF
16dd	16b-	.	16dd	.	16b-	.	.	.	.	.	.
16cc	16a	8f	16cc	8c	16a	8F	8FF	.	.	.	8FF
16b-	16b-	.	16dd	.	16b-	.	.	.	.	.	.
16cc	16a	8c	16cc	8c	16a	8F	8FF	.	.	.	8FF
16ee-	16g	.	16b-	.	16g	.	.	.	.	.	.
16f	16f	8f	16a-	8f	8f	16F	8FF	[2aa-	4dd	4dd	8FF
16e-	16g	.	16g	.	.	16E-	.	.	.	.	.
16f	16a-	8F	16a-	8f	8f	16F	8FF	.	.	.	8FF
16g	16b-	.	16b-	.	.	16G	.	.	.	.	.
16a-	16cc	8f	16a-	8f	8f	16F	8FF	.	4cc	4cc	8FF
16g	16b-	.	16b-	.	.	16G	.	.	.	.	.
16a-	16cc	8e-	16a-	8f	8f	16F	8FF	.	.	.	8FF
16cc	16ee-	.	16g	.	.	16E-	.	.	.	.	.
=54	=54	=54	=54	=54	=54	=54	=54	=54	=54	=54	=54
16b-	16f	16d	8f	16f	8b-	16D	8BB-	2aa-]	1dd	1dd	8BB-
16a-	16e-	16c	.	16e-	.	16C	.	.	.	.	.
16b-	16f	16d	8f	16f	8b-	16D	8BB-	.	.	.	8BB-
16cc	16g	16e-	.	16g	.	16E-	.	.	.	.	.
16b-	16f	16d	8f	16f	8b-	16D	8BB-	.	.	.	8BB-
16a-	16e-	16c	.	16g	.	16E-	.	.	.	.	.
16b-	16f	16d	8f	16f	8b-	16D	8BB-	.	.	.	8BB-
16cc	16c	16f#	.	16e-	.	16C	.	.	.	.	.
16b-	16d	8g	8b-	16d	16b-	8BB-	8BB-	4gg	.	.	8BB-
16a	16f#	.	.	16c	16a	.	.	.	.	.	.
16b-	16g	8d	8b-	16d	16b-	8BB-	8BB-	.	.	.	8BB-
16cc	16a	.	.	16e-	16cc	.	.	.	.	.	.
16dd	16b-	8b-	8b-	16d	16b-	8D	8BB-	4ff#	.	.	8BB-
16ee-	16cc	.	.	16e-	16cc	.	.	.	.	.	.
16dd	16b-	8d	8b-	16d	16b-	8BB-	8BB-	.	.	.	8BB-
16cc	16a	.	.	16c	16a	.	.	.	.	.	.
=55	=55	=55	=55	=55	=55	=55	=55	=55	=55	=55	=55
16b-	16g	8g	16b-	8B-	16g	4r	8EE	[1gg	2cc#	2cc#	8EE
16a	16f#	.	16a	.	16f#	.	.	.	.	.	.
16b-	16g	8G	16b-	8G	16g	.	8EE	.	.	.	8EE
16cc	16a	.	16cc	.	16a	.	.	.	.	.	.
16b-	16g	8B-	16b-	8b-	16g	8G	8EE	.	.	.	8EE
16a	16f#	.	16cc	.	16a	.	.	.	.	.	.
16b-	16g	8G	16b-	8g	16g	8E	8EE	.	.	.	8EE
16cc	16a	.	16a	.	16f	.	.	.	.	.	.
16a	16c	16e-	8g	4r	8e-	4r	8EE-	.	2cc	2cc	8EE-
16g	16B-	16d	.	.	.	.	.	.	.	.	.
16a	16c	16e-	8g	.	8e-	.	8EE-	.	.	.	8EE-
16b-	16d	16f	.	.	.	.	.	.	.	.	.
16a	16c	16e-	8cc	8g	8ee-	8c	8EE-	.	.	.	8EE-
16g	16B-	16d	.	.	.	.	.	.	.	.	.
16a	16c	16e-	8a	8e-	8cc	8e-	8EE-	.	.	.	8EE-
16cc	16a	16c	.	.	.	.	.	.	.	.	.
=56	=56	=56	=56	=56	=56	=56	=56	=56	=56	=56	=56
16dd	16b	8g	4r	4r	4r	8d	8DD	1gg_	2b	2b	8DD
16cc	16a	.	.	.	.	.	.	.	.	.	.
16dd	16b	8d	.	.	.	8c#	8DD	.	.	.	8DD
16ee-	16cc	.	.	.	.	.	.	.	.	.	.
16dd	16b	8g	8dd	8g	8b	8d	8DD	.	.	.	8DD
16cc	16a	.	.	.	.	.	.	.	.	.	.
16dd	16b	8d	8g	8d	8g	8B	8DD	.	.	.	8DD
16ff	16a	.	.	.	.	.	.	.	.	.	.
16ee	16g	16b-	4r	4r	4r	4.c#	8CC#	.	2b-	2b-	8CC#
16dd	16f#	16a	.	.	.	.	.	.	.	.	.
16ee	16g	16b-	.	.	.	.	8CC#	.	.	.	8CC#
16ff#	16a	16a	.	.	.	.	.	.	.	.	.
16gg	16b-	8g	[4gg	8b-	8g	.	8CC#	.	.	.	8CC#
16ff#	16a	.	.	.	.	.	.	.	.	.	.
16gg	[8g	8e	.	8b-	8g	8c#	8CC#	.	.	.	8CC#
16aa	.	.	.	.	.	.	.	.	.	.	.
=57	=57	=57	=57	=57	=57	=57	=57	=57	=57	=57	=57
16dd	16g]	16a	8gg]	2a	2dd	2d	8DD	2gg]	1a	1a	8DD
16cc	16e	16g	.	.	.	.	.	.	.	.	.
16dd	16f#	16a	8ff#	.	.	.	8DD	.	.	.	8DD
16ee-	16g	16b-	.	.	.	.	.	.	.	.	.
16dd	16a	8a	8gg	.	.	.	8DD	.	.	.	8DD
16cc	16cc	.	.	.	.	.	.	.	.	.	.
16dd	16b-	8g	8ee	.	.	.	8DD	.	.	.	8DD
16ee-	16cc	.	.	.	.	.	.	.	.	.	.
16cc	16a	8dd	4.ff#	2a	2dd	2D	8DD	2ff#	.	.	8DD
16b-	16g	.	.	.	.	.	.	.	.	.	.
16cc	16a	8a	.	.	.	.	8DD	.	.	.	8DD
16dd	16b-	.	.	.	.	.	.	.	.	.	.
16cc	16a	8f#	.	.	.	.	8DD	.	.	.	8DD
16b-	16g	.	.	.	.	.	.	.	.	.	.
16cc	16a	8d	8gg	.	.	.	8DD	.	.	.	8DD
16dd	16b-	.	.	.	.	.	.	.	.	.	.
=58	=58	=58	=58	=58	=58	=58	=58	=58	=58	=58	=58
4b-	4g	4d	4gg	4b-	4dd	4G	4GG	4gg	4b-	4b-	4GG
4r	4r	4r	2.r	2.r	2.r	4r	4r	2r	2.r	2.r	4r
8g	8b-	8e-	.	.	.	4e-	16EE-	.	.	.	16EE-
.	.	.	.	.	.	.	16DD	.	.	.	16DD
8r	8r	8r	.	.	.	.	16EE-	.	.	.	16EE-
.	.	.	.	.	.	.	16FF	.	.	.	16FF
8a-	8cc	8e-	.	.	.	8E-	16EE-	4ee-	.	.	16EE-
.	.	.	.	.	.	.	16DD	.	.	.	16DD
8r	8r	8r	.	.	.	8F	16EE-	.	.	.	16EE-
.	.	.	.	.	.	.	16FF	.	.	.	16FF
=59	=59	=59	=59	=59	=59	=59	=59	=59	=59	=59	=59
8b-	8g	8e-	1r	2r	4ee-	8G	16EE-	4dd-	4r	4r	16EE-
.	.	.	.	.	.	.	16DD	.	.	.	16DD
8r	8r	8r	.	.	.	4c	16EE-	.	.	.	16EE-
.	.	.	.	.	.	.	16FF	.	.	.	16FF
8cc	8a-	8e-	.	.	8e-	.	16EE-	4cc	4ee-	4ee-	16EE-
.	.	.	.	.	.	.	16DD	.	.	.	16DD
8r	8r	8r	.	.	8f	16B-	16EE-	.	.	.	16EE-
.	.	.	.	.	.	16A-	16FF	.	.	.	16FF
8dd-	8g	8b-	.	4ee-	8g	8B-	16EE-	4b-	4dd-	4dd-	16EE-
.	.	.	.	.	.	.	16DD	.	.	.	16DD
8r	8r	8r	.	.	4cc	4e-	16EE-	.	.	.	16EE-
.	.	.	.	.	.	.	16FF	.	.	.	16FF
8ee-	8cc	8a-	.	8e-	.	.	16EE-	4a-	4cc	4cc	16EE-
.	.	.	.	.	.	.	16DD	.	.	.	16DD
8r	8r	8r	.	8f	16b-	16d-	16EE-	.	.	.	16EE-
.	.	.	.	.	16a-	16c	16FF	.	.	.	16FF
=60	=60	=60	=60	=60	=60	=60	=60	=60	=60	=60	=60
8ff	8b-	8d-	2r	8g	8b-	8d-	16EE-	4g	4b-	4b-	16EE-
.	.	.	.	.	.	.	16DD	.	.	.	16DD
8r	8r	8r	.	4b-	4dd-	8B-	16EE-	.	.	.	16EE-
.	.	.	.	.	.	.	16FF	.	.	.	16FF
8ee-	8g	8B-	.	.	.	8G	16EE-	2b-	4dd-	4dd-	16EE-
.	.	.	.	.	.	.	16DD	.	.	.	16DD
8r	8r	8r	.	8a-	16cc	8F	16EE-	.	.	.	16EE-
.	.	.	.	.	16b-	.	16FF	.	.	.	16FF
8gg	8g	8c	4cc	8g	4cc	4E	16EE	.	4cc	4cc	16EE
.	.	.	.	.	.	.	16DD	.	.	.	16DD
8r	8r	8r	.	4cc	.	.	16EE	.	.	.	16EE
.	.	.	.	.	.	.	16FF	.	.	.	16FF
8c	8g	8c	8c	.	4r	4r	16EE	4cc	4r	4r	16EE
.	.	.	.	.	.	.	16DD	.	.	.	16DD
8r	8r	8r	8d	16b-	.	.	16EE	.	.	.	16EE
.	.	.	.	16a-	.	.	16GG	.	.	.	16GG
=61	=61	=61	=61	=61	=61	=61	=61	=61	=61	=61	=61
8g	8e	8c	8e	4b-	1r	4c	16C	4b-	4r	4r	16C
.	.	.	.	.	.	.	16BB-	.	.	.	16BB-
8r	8r	8r	4a-	.	.	.	16C	.	.	.	16C
.	.	.	.	.	.	.	16D-	.	.	.	16D-
8a-	8f	8c	.	4r	.	8C	16C	4a-	4cc	4cc	16C
.	.	.	.	.	.	.	16BB-	.	.	.	16BB-
8r	8r	8r	16g	.	.	8D	16C	.	.	.	16C
.	.	.	16f	.	.	.	16D-	.	.	.	16D-
8b-	8e	8g	8g	4cc	.	8E	16C	4g	4b-	4b-	16C
.	.	.	.	.	.	.	16BB-	.	.	.	16BB-
8r	8r	8r	4cc	.	.	4A-	16C	.	.	.	16C
.	.	.	.	.	.	.	16D-	.	.	.	16D-
8cc	8a-	8f	.	8c	.	.	16C	4f	4a-	4a-	16C
.	.	.	.	.	.	.	16BB-	.	.	.	16BB-
8r	8r	8r	16b-	8d	.	16G	16C	.	.	.	16C
.	.	.	16a-	.	.	16F	16D-	.	.	.	16D-
=62	=62	=62	=62	=62	=62	=62	=62	=62	=62	=62	=62
8dd-	8g	8B-	8b-	8e	2r	8G	16C	4e	4g	4g	16C
.	.	.	.	.	.	.	16BB-	.	.	.	16BB-
8r	8r	8r	4dd-	4g	.	4B-	16C	.	.	.	16C
.	.	.	.	.	.	.	16D-	.	.	.	16D-
8cc	8e	8G	.	.	.	.	16C	8g	4b-	4b-	16C
.	.	.	.	.	.	.	16BB-	.	.	.	16BB-
8r	8r	8r	16cc	16f	.	16A-	16AA-	8c	.	.	16AA-
.	.	.	16b-	16e	.	16G	16GG	.	.	.	16GG
8cc	8f	8A-	4a-	8f	4ff	4F	16FF	4f	4a-	4a-	16FF
.	.	.	.	.	.	.	16EE	.	.	.	16EE
8r	8r	8r	.	4dd-	.	.	16FF	.	.	.	16FF
.	.	.	.	.	.	.	16GG	.	.	.	16GG
8b-	8dd-	8f	4r	.	8f	4r	16FF	4r	4ff	4ff	16FF
.	.	.	.	.	.	.	16EE	.	.	.	16EE
8r	8r	8r	.	16cc	8g	.	16FF	.	.	.	16FF
.	.	.	.	16b-	.	.	16GG	.	.	.	16GG
=63	=63	=63	=63	=63	=63	=63	=63	=63	=63	=63	=63
8cc	8a	8f	4ff	4cc	8a	1r	16FF	4r	4ee-	4ee-	16FF
.	.	.	.	.	.	.	16EE	.	.	.	16EE
8r	8r	8r	.	.	4dd	.	16FF	.	.	.	16FF
.	.	.	.	.	.	.	16GG	.	.	.	16GG
8dd	8b-	8f	8f	4r	.	.	16FF	4ff	4dd	4dd	16FF
.	.	.	.	.	.	.	16EE	.	.	.	16EE
8r	8r	8r	8g	.	16cc	.	16FF	.	.	.	16FF
.	.	.	.	.	16b-	.	16GG	.	.	.	16GG
8ee-	8a	8cc	8a	4f	8cc	.	16FF	4ee-	4cc	4cc	16FF
.	.	.	.	.	.	.	16EE	.	.	.	16EE
8r	8r	8r	4dd	.	4ff	.	16FF	.	.	.	16FF
.	.	.	.	.	.	.	16GG	.	.	.	16GG
8ff	8dd	8b-	.	8f	.	.	16FF	4dd	4b-	4b-	16FF
.	.	.	.	.	.	.	16EE	.	.	.	16EE
8r	8r	8r	16cc	8g	16ee-	.	16FF	.	.	.	16FF
.	.	.	16b-	.	16dd	.	16GG	.	.	.	16GG
=64	=64	=64	=64	=64	=64	=64	=64	=64	=64	=64	=64
8gg	8cc	8e-	8cc	8a	8ee-	2r	16FF	4cc	4a	4a	16FF
.	.	.	.	.	.	.	16EE	.	.	.	16EE
8r	8r	8r	4ee-	4cc	8cc	.	16FF	.	.	.	16FF
.	.	.	.	.	.	.	16GG	.	.	.	16GG
8ff	8a	8c	.	.	8a	.	16FF	4ee-	2cc	2cc	16FF
.	.	.	.	.	.	.	16EE	.	.	.	16EE
8r	8r	8r	16dd	8b-	8g	.	16FF	.	.	.	16FF
.	.	.	16cc	.	.	.	16GG	.	.	.	16GG
8aa	8a	8d	4dd	8a	4f#	4d	16FF#	4dd	.	.	16FF#
.	.	.	.	.	.	.	16EE	.	.	.	16EE
8r	8r	8r	.	4dd	.	.	16FF#	.	.	.	16FF#
.	.	.	.	.	.	.	16GG	.	.	.	16GG
8d	8a	8d	4r	.	4r	8D	16FF#	4r	4dd	4dd	16FF#
.	.	.	.	.	.	.	16EE	.	.	.	16EE
8r	8r	8r	.	16cc	.	8E	16FF#	.	.	.	16FF#
.	.	.	.	16b-	.	.	16AA	.	.	.	16AA
=65	=65	=65	=65	=65	=65	=65	=65	=65	=65	=65	=65
8a	8f#	8d	4r	4cc	4dd	8F#	16D	4r	4cc	4cc	16D
.	.	.	.	.	.	.	16C	.	.	.	16C
8r	8r	8r	.	.	.	4B-	16D	.	.	.	16D
.	.	.	.	.	.	.	16E-	.	.	.	16E-
8b-	8g	8d	4dd	4r	8d	.	16D	4dd	4b-	4b-	16D
.	.	.	.	.	.	.	16C	.	.	.	16C
8r	8r	8r	.	.	8e	16A	16D	.	.	.	16D
.	.	.	.	.	.	16G	16E-	.	.	.	16E-
8cc	8f#	8a	8d	4dd	8f#	8A	16D	4cc	4a	4a	16D
.	.	.	.	.	.	.	16C	.	.	.	16C
8r	8r	8r	16e	.	4b-	4d	16D	.	.	.	16D
.	.	.	16f#	.	.	.	16E-	.	.	.	16E-
8dd	8b-	8g	8g	8d	.	.	16D	4b-	4g	4g	16D
.	.	.	.	.	.	.	16C	.	.	.	16C
8r	8r	8r	8b-	8e	16a	16c	16D	.	.	.	16D
.	.	.	.	.	16g	16B-	16E-	.	.	.	16E-
=66	=66	=66	=66	=66	=66	=66	=66	=66	=66	=66	=66
8ee-	8a	8c	8a	8f#	8a	8c	16D	4a	4f#	4f#	16D
.	.	.	.	.	.	.	16C	.	.	.	16C
8r	8r	8r	8f#	4a	4cc	4e-	16D	.	.	.	16D
.	.	.	.	.	.	.	16E-	.	.	.	16E-
8dd	8f#	8A	8d	.	.	.	16D	4cc	8a	8a	16D
.	.	.	.	.	.	.	16C	.	.	.	16C
8r	8r	8r	8a	16g	16b-	16d	16BB-	.	8d	8d	16BB-
.	.	.	.	16f#	16a	16c	16AA	.	.	.	16AA
8dd	8g	8B-	8b-	8g	4g	4B-	8GG	16b-	16g	16d	4GG
.	.	.	.	.	.	.	.	16a	16f#	16c	.
8r	8r	8r	8g	4ee-	.	.	8GG	16b-	16g	16d	.
.	.	.	.	.	.	.	.	16cc	16a	16e-	.
8gg	8dd	8b-	8b-	.	8r	4r	8GG	16b-	16g	16d	4r
.	.	.	.	.	.	.	.	16a	16f#	16c	.
8r	8r	8r	8dd	16dd	8g	.	8GG	16b-	16g	16d	.
.	.	.	.	16cc	.	.	.	16cc	16a	16e-	.
=67	=67	=67	=67	=67	=67	=67	=67	=67	=67	=67	=67
8dd	8b-	8g	4gg	4b-	8b-	8r	8GG	16b-	16g	16d	4GG
.	.	.	.	.	.	.	.	16a	16f#	16c	.
8r	8r	8r	.	.	8dd	8GG	8GG	16b-	16g	16d	.
.	.	.	.	.	.	.	.	16cc	16a	16e-	.
8b-	8g	8d	4dd	8r	4gg	8BB-	8GG	16b-	16g	16d	4r
.	.	.	.	.	.	.	.	16a	16f#	16c	.
8r	8r	8r	.	8G	.	8D	8GG	16b-	16g	16d	.
.	.	.	.	.	.	.	.	16cc	16a	16e-	.
8g	8d	8B-	4b-	8B-	4dd	4G	8GG	16b-	16g	16d	4GG
.	.	.	.	.	.	.	.	16a	16f#	16c	.
8r	8r	8r	.	8d	.	.	8GG	16b-	16g	16d	.
.	.	.	.	.	.	.	.	16cc	16a	16e-	.
8b-	8g	8d	4g	8g	4b-	8r	8GG	16b-	16g	16d	4r
.	.	.	.	.	.	.	.	16a	16f#	16c	.
8r	8r	8r	.	8d	.	8G	8GG	16b-	16g	16d	.
.	.	.	.	.	.	.	.	16cc	16a	16f#	.
=68	=68	=68	=68	=68	=68	=68	=68	=68	=68	=68	=68
16e-	16B-	16G	4e-	8B-	8g	8G	8GG	4b-	4b-	4g	4GG
16d	16A-	16F	.	.	.	.	.	.	.	.	.
16e-	16B-	16G	.	8B-	4g	8E-	8GG	.	.	.	.
16f	16c	16A-	.	.	.	.	.	.	.	.	.
16e-	16B-	16G	8e-	8B-	.	8BB-	8GG	2.r	2.r	2.r	4r
16d	16A-	16F	.	.	.	.	.	.	.	.	.
16e-	16B-	16G	8f	8d	8a-	8AA-	8GG	.	.	.	.
16f	16c	16A-	.	.	.	.	.	.	.	.	.
16e-	16B-	16G	8g	8e-	8b-	4GG	8GG	.	.	.	4GG
16d	16A	16F	.	.	.	.	.	.	.	.	.
16e-	16B-	16G	8e-	8B-	8g	.	8GG	.	.	.	.
16f	16c	16A	.	.	.	.	.	.	.	.	.
16d	16B-	16F	8d	8B-	8f	4GG	8GG	.	.	.	4r
16c#	16A	16E	.	.	.	.	.	.	.	.	.
16d	16B-	16F	8c#	8A	8e	.	8GG	.	.	.	.
16e	16c	16G	.	.	.	.	.	.	.	.	.
=69	=69	=69	=69	=69	=69	=69	=69	=69	=69	=69	=69
16c#	16A	16E	2c#	2A	2e	2GG	8GG	1r	1r	1r	4GG
16B	16G	16D	.	.	.	.	.	.	.	.	.
16c#	16A	16E	.	.	.	.	8GG	.	.	.	.
16d	16B-	16F	.	.	.	.	.	.	.	.	.
16c#	16A	16E	.	.	.	.	8GG	.	.	.	4r
16B	16G	16D	.	.	.	.	.	.	.	.	.
16c#	16A	16E	.	.	.	.	8GG	.	.	.	.
16d	16B-	16F	.	.	.	.	.	.	.	.	.
16c#	16A	16E	4.r	4.r	4.r	4.r	8GG	.	.	.	4GG
16B	16G	16D	.	.	.	.	.	.	.	.	.
16c#	16A	16E	.	.	.	.	8GG	.	.	.	.
16d	16B-	16F	.	.	.	.	.	.	.	.	.
16c#	16A	16E	.	.	.	.	8GG	.	.	.	8r
16B	16G	16D	.	.	.	.	.	.	.	.	.
16c#	16A	16E	8c#	8A	8e	8G	8GG	.	.	.	8GG
16e	16B-	16C#	.	.	.	.	.	.	.	.	.
=70	=70	=70	=70	=70	=70	=70	=70	=70	=70	=70	=70
16d	16A	16F	16d	16A	16f	8F	8FF	4r	1r	1r	8FF
16c#	16G	16E	16c#	16G	16e	.	.	.	.	.	.
16d	16A	16F	16d	16A	16f	8E	8FF	.	.	.	8FF
16e	16B-	16G	16e	16B-	16g	.	.	.	.	.	.
16d	16A	16F	16d	16A	16f	8F	8DD	4f	.	.	8DD
16c#	16G	16E	16c#	16G	16e	.	.	.	.	.	.
16d	16A	16F	16d	16A	16f	8D	8DD	.	.	.	8DD
16f	16c	16A	16f	16c	16a	.	.	.	.	.	.
16e	16B-	16G	16e	16B-	16g	8BB-	8GG	4e	.	.	8GG
16d	16A	16F	16d	16A	16f	.	.	.	.	.	.
16e	16B-	16G	16e	16B-	16g	8GG	8GG	.	.	.	8GG
16f	16d	16A	16f	16d	16a	.	.	.	.	.	.
16e	16c#	16G	16e	16c#	16g	8AA	8AA	4cc#	.	.	8AA
16d	16B	16F	16d	16B	16f	.	.	.	.	.	.
16e	16c#	16G	16e	16c#	16g	8A	8AA	.	.	.	8AA
16g	16e	16E	16g	16e	16e	.	.	.	.	.	.
=71	=71	=71	=71	=71	=71	=71	=71	=71	=71	=71	=71
16f	16d	16F	16f	16d	16f	8D	8DD	4dd	4r	4r	8DD
16e	16c#	16G	16e	16c#	16g	.	.	.	.	.	.
16f	16d	16A	16f	16d	16a	8E	8DD	.	.	.	8DD
16g	16e	16B-	16g	16e	16b-	.	.	.	.	.	.
16f	16d	16A	16f	16d	16a	8F	8DD	2bb-	4f	4f	8DD
16e	16c#	16G	16e	16c#	16g	.	.	.	.	.	.
16f	16d	16A	16f	16d	16a	8D	8DD	.	.	.	8DD
16a	16f	16F	16a	16f	16f	.	.	.	.	.	.
16g	16e	8B-	16g	16e	8b-	8G	8DD	.	4e	4e	8DD
16f	16d	.	16f	16d	.	.	.	.	.	.	.
16g	16e	8g	16g	16e	8gg	8B-	8DD	.	.	.	8DD
16a	16f	.	16a	16f	.	.	.	.	.	.	.
16g	16e	8c#	16g	16e	8cc#	8E	8DD	8aa	4cc#	4cc#	8DD
16f	16d	.	16f	16d	.	.	.	.	.	.	.
16g	16e	8e	16g	16e	8ee	8C#	8DD	8gg	.	.	8DD
16b-	16c#	.	16b-	16g	.	.	.	.	.	.	.
=72	=72	=72	=72	=72	=72	=72	=72	=72	=72	=72	=72
16a	16f	8A	8a	8.f	8a	8F	8DD	2ff	2dd	2dd	8DD
16g	16e	.	.	.	.	.	.	.	.	.	.
16a	16f	8d	8d	.	8dd	8B-	8DD	.	.	.	8DD
16b-	16g	.	.	16g	.	.	.	.	.	.	.
16cc	16a	8d	8a	8f	8cc	8A	8DD	.	.	.	8DD
16b-	16g	.	.	.	.	.	.	.	.	.	.
16cc	16a	8g	8b-	8e-	8b-	8G	8DD	.	.	.	8DD
16dd	16b-	.	.	.	.	.	.	.	.	.	.
16ee-	16cc	8c	4cc	4d	4a	4F#	8DD	2ff#	2cc	2cc	8DD
16dd	16b-	.	.	.	.	.	.	.	.	.	.
16ee-	16cc	8a	.	.	.	.	8DD	.	.	.	8DD
16cc	16ee-	.	.	.	.	.	.	.	.	.	.
16f#	16dd	8a	8r	8r	8r	8r	8DD	.	.	.	8DD
16ee-	16cc	.	.	.	.	.	.	.	.	.	.
16dd	16b-	8f#	8dd	8d	8a	8D	8DD	.	.	.	8DD
16cc	16a	.	.	.	.	.	.	.	.	.	.
=73	=73	=73	=73	=73	=73	=73	=73	=73	=73	=73	=73
16b-	16g	16d	16g	16d	16b-	8d	8DD	2.gg	2b-	2b-	8DD
16cc	16f#	16e-	16f#	16c	16a	.	.	.	.	.	.
16b-	16g	16d	16g	16d	16b-	8A	8DD	.	.	.	8DD
16a	16a	16c	16a	16e-	16cc	.	.	.	.	.	.
16g	16d	16B-	16g	16d	16b-	8B-	8DD	.	.	.	8DD
16f#	16c	16A	16f#	16c	16a	.	.	.	.	.	.
16g	16d	16B-	16g	16d	16b-	8G	8DD	.	.	.	8DD
16d	16f	16d	16b-	16f	16dd	.	.	.	.	.	.
16a	16e-	16c	16a	16e-	16cc	8F#	8DD	.	[2a	[2a	8DD
16g	16d	16B-	16g	16d	16b-	.	.	.	.	.	.
16a	16e-	16c	16a	16e-	16cc	4A	8DD	.	.	.	8DD
16b-	16f	16d	16b-	16f	16dd	.	.	.	.	.	.
16a	16e-	16c	16a	16e-	16cc	.	8DD	4ff#	.	.	8DD
16g	16d	16B-	16g	16d	16b-	.	.	.	.	.	.
16a	16e-	16c	16a	16e-	16cc	16G	8DD	.	.	.	8DD
16cc	16c	16e-	16cc	16c	16ee-	16F#	.	.	.	.	.
=74	=74	=74	=74	=74	=74	=74	=74	=74	=74	=74	=74
16b-	16d	8G	16b-	16d	8dd	8G	8DD	2.bb-	4a]	4a]	8DD
16a	16c	.	16a	16c	.	.	.	.	.	.	.
16b-	16d	8d	16b-	16d	8f#	8A	8DD	.	.	.	8DD
16cc	16e-	.	16cc	16e-	.	.	.	.	.	.	.
16b-	16d	8B-	16b-	16d	4.g	8B-	8DD	.	4g	4g	8DD
16a	16c	.	16a	16c	.	.	.	.	.	.	.
16b-	16d	4G	16b-	16d	.	8G	8DD	.	.	.	8DD
16dd	16g	.	16dd	16g	.	.	.	.	.	.	.
16cc	16e-	.	16cc	8e-	.	16A	8DD	.	2cc	2cc	8DD
16b-	16d	.	16b-	.	.	16G	.	.	.	.	.
16cc	16e-	4F#	16cc	8d	8f#	16A	8DD	.	.	.	8DD
16dd	16d	.	16dd	.	.	16B-	.	.	.	.	.
16cc	16e-	.	16cc	8e-	8f#	16A	8DD	[4aa	.	.	8DD
16b-	16d	.	16b-	.	.	16G	.	.	.	.	.
16cc	16e-	[8A	16cc	8A	8a	16A	8DD	.	.	.	8DD
16ee-	16c	.	16ee-	.	.	16c	.	.	.	.	.
=75	=75	=75	=75	=75	=75	=75	=75	=75	=75	=75	=75
16dd	16f#	8A]	8dd	8d	8a	8B-	8DD	4aa]	2.b-	2.b-	8DD
16cc	16a	.	.	.	.	.	.	.	.	.	.
16dd	16g	8D	8g	8B-	8d	8d	8DD	.	.	.	8DD
16ee-	16f#	.	.	.	.	.	.	.	.	.	.
16dd	16g	16B-	8g	4d	8b-	8G	8DD	4gg	.	.	8DD
16cc#	16a	16A	.	.	.	.	.	.	.	.	.
16dd	16g	16B-	8a	.	8a	8F	8DD	.	.	.	8DD
16ee	16f	16A	.	.	.	.	.	.	.	.	.
16cc#	16g	8G	8b-	4c#	4g	4E	8DD	4cc#	.	.	8DD
16b	16f	.	.	.	.	.	.	.	.	.	.
16cc#	16g	16b-	16gg	.	.	.	8DD	.	.	.	8DD
16ee	16a	16a	16ff	.	.	.	.	.	.	.	.
16g	16b-	16g	8ee	8r	8r	8r	8DD	4dd	4b-	4b-	8DD
16f	16a	16a	.	.	.	.	.	.	.	.	.
16g	16b-	16g	8dd	8g	8b-	8G	8DD	.	.	.	8DD
16b-	16g	16dd	.	.	.	.	.	.	.	.	.
=76	=76	=76	=76	=76	=76	=76	=76	=76	=76	=76	=76
16e	16a	16cc#	8cc#	8e	8a	8G	8DD	1ee	4a	4a	8DD
16d	16g	16b	.	.	.	.	.	.	.	.	.
16e	16a	16cc#	8b	8d	8ff	8F	8DD	.	.	.	8DD
16f	16b-	16dd	.	.	.	.	.	.	.	.	.
16e	16a	16cc#	8cc#	8a	8ee	8G	8DD	.	4g	4g	8DD
16d	16g	16b	.	.	.	.	.	.	.	.	.
16e	16a	16cc#	8a	8a	8cc#	16A	8DD	.	.	.	8DD
16c#	16b-	16ee	.	.	.	16E	.	.	.	.	.
16f	16a	16dd	8dd	16a	16ff	16F	8DD	.	2f	2f	8DD
16e	16g	16cc#	.	16g	16ee	16G	.	.	.	.	.
16f	16a	16dd	8d	16a	16ff	16F	8DD	.	.	.	8DD
16g	16b-	16a	.	16b-	16gg	16E	.	.	.	.	.
16f	16a	16d	8f	16a	16ff	16F	8DD	.	.	.	8DD
16e	16b-	16c#	.	16g	16ee	16G	.	.	.	.	.
16f	16a	16d	8a	16a	16ff	16F	8DD	.	.	.	8DD
16g	16g	16e	.	16b-	16gg	16E	.	.	.	.	.
=77	=77	=77	=77	=77	=77	=77	=77	=77	=77	=77	=77
16a	16f	8f	8dd	16a	16ff	8F	8DD	4dd	2.ff	2.ff	8DD
16g#	16e	.	.	16g#	16ee	.	.	.	.	.	.
16a	16f	8c#	16aa	16a	16ff	8D	8DD	.	.	.	8DD
16b	16e	.	16gg	16b	16ee	.	.	.	.	.	.
16a	16f	16d	8.ff	16a	16ff	8r	8DD	4cc	.	.	8DD
16g#	16e	16e	.	16g#	16ee	.	.	.	.	.	.
16a	8f	16d	.	16a	8ff	8A	8DD	.	.	.	8DD
16b	.	16c	16ee	16b	.	.	.	.	.	.	.
16g#	16B	16d	8.dd	16g#	16b	8d	8DD	2b	.	.	8DD
16f#	16A	16c	.	16f#	16a	.	.	.	.	.	.
16g#	16B	16d	.	16g#	16b	8d	8DD	.	.	.	8DD
16a	16c	16e	16cc	16a	16cc	.	.	.	.	.	.
16g#	16d	16f	8.b	16g#	16dd	8d	8DD	.	4dd	4dd	8DD
16f#	16c	16A	.	16f#	16cc	.	.	.	.	.	.
16g#	16d	16B	.	16g#	16dd	8D	8DD	.	.	.	8DD
16a	16e	16c	16a	16a	16ee	.	.	.	.	.	.
=78	=78	=78	=78	=78	=78	=78	=78	=78	=78	=78	=78
16b	16f	16d	4.g#	8b	8ff	4D	8DD	2dd	2b	2b	8DD
16a	16e	16c#	.	.	.	.	.	.	.	.	.
16b	16f	16d	.	8d	8b	.	8DD	.	.	.	8DD
16cc#	16g	16e	.	.	.	.	.	.	.	.	.
16b	16f	16d	.	8B	16dd	4r	8DD	.	.	.	8DD
16a	16e	16c#	.	.	16cc#	.	.	.	.	.	.
16b	16f	16d	8a	8f	8dd	.	8DD	.	.	.	8DD
16cc#	16g	16e	.	.	.	.	.	.	.	.	.
8a	8e	8c#	4a	4e	4cc#	4A	16AA	4ee	4cc#	4cc#	16AA
.	.	.	.	.	.	.	16GG#	.	.	.	16GG#
8r	8r	8r	.	.	.	.	16AA	.	.	.	16AA
.	.	.	.	.	.	.	16BB	.	.	.	16BB
8ff	8d	8A	4r	4r	4r	8AA	16AA	4aa	4r	4r	16AA
.	.	.	.	.	.	.	16GG#	.	.	.	16GG#
8r	8r	8r	.	.	.	8BB	16AA	.	.	.	16AA
.	.	.	.	.	.	.	16BB	.	.	.	16BB
=79	=79	=79	=79	=79	=79	=79	=79	=79	=79	=79	=79
8cc#	8e	8A	4aa	1r	2r	8C#	16AA	4gg	4r	4r	16AA
.	.	.	.	.	.	.	16GG#	.	.	.	16GG#
8r	8r	8r	.	.	.	4F	16AA	.	.	.	16AA
.	.	.	.	.	.	.	16BB	.	.	.	16BB
8dd	8f	8A	8a	.	.	.	16AA	4ff	4aa	4aa	16AA
.	.	.	.	.	.	.	16GG#	.	.	.	16GG#
8r	8r	8r	8b	.	.	16E	16AA	.	.	.	16AA
.	.	.	.	.	.	16D	16BB	.	.	.	16BB
8cc#	8g	8e	8cc#	.	4aa	8E	16AA	4ee	4gg	4gg	16AA
.	.	.	.	.	.	.	16GG#	.	.	.	16GG#
8r	8r	8r	4ff	.	.	4A	16AA	.	.	.	16AA
.	.	.	.	.	.	.	16BB	.	.	.	16BB
8dd	8a	8f	.	.	8a	.	16AA	4dd	4ff	4ff	16AA
.	.	.	.	.	.	.	16GG#	.	.	.	16GG#
8r	8r	8r	16ee	.	8b	16G	16AA	.	.	.	16AA
.	.	.	16dd	.	.	16F	16BB	.	.	.	16BB
=80	=80	=80	=80	=80	=80	=80	=80	=80	=80	=80	=80
8gg	8b-	8c#	8ee	2r	8cc#	8G	16AA	4cc#	4ee	4ee	16AA
.	.	.	.	.	.	.	16GG#	.	.	.	16GG#
8r	8r	8r	4gg	.	4ee	8E	16AA	.	.	.	16AA
.	.	.	.	.	.	.	16BB	.	.	.	16BB
8ee	8a	8c#	.	.	.	8C#	8C#	4ee	4gg	4gg	8C#
8r	8r	8r	16ff	.	16dd	8AA	8AA	.	.	.	8AA
.	.	.	16ee	.	16cc#	.	.	.	.	.	.
8ff	8a	8d	4ff	4dd	4.dd	4D	16D	4dd	4ff	4ff	16D
.	.	.	.	.	.	.	16C#	.	.	.	16C#
8r	8r	8r	.	.	.	.	16D	.	.	.	16D
.	.	.	.	.	.	.	16E	.	.	.	16E
8gg	8b-	8d	4r	8d	.	4r	16D	4r	4dd	4dd	16D
.	.	.	.	.	.	.	16C#	.	.	.	16C#
8r	8r	8r	.	8e	16cc	.	16D	.	.	.	16D
.	.	.	.	.	16b-	.	16E	.	.	.	16E
=81	=81	=81	=81	=81	=81	=81	=81	=81	=81	=81	=81
8aa	8dd	8f#	2r	8f#	4a	4d	16D	4r	4cc	4cc	16D
.	.	.	.	.	.	.	16C#	.	.	.	16C#
8r	8r	8r	.	4b-	.	.	16D	.	.	.	16D
.	.	.	.	.	.	.	16E	.	.	.	16E
8bb-	8dd	8g	.	.	4dd	8D	16D	4dd	4b-	4b-	16D
.	.	.	.	.	.	.	16C#	.	.	.	16C#
8r	8r	8r	.	16a	.	8E	16D	.	.	.	16D
.	.	.	.	16g	.	.	16E	.	.	.	16E
8ccc	8aa	8f#	4dd	8a	8d	8F#	16D	4cc	4a	4a	16D
.	.	.	.	.	.	.	16C#	.	.	.	16C#
8r	8r	8r	.	4dd	8e	4B-	16D	.	.	.	16D
.	.	.	.	.	.	.	16E	.	.	.	16E
8ddd	8gg	8b-	8d	.	8f#	.	16D	4b-	4g	4g	16D
.	.	.	.	.	.	.	16C#	.	.	.	16C#
8r	8r	8r	8e	16cc	8b-	16A	16D	.	.	.	16D
.	.	.	.	16b-	.	16G	16E	.	.	.	16E
=82	=82	=82	=82	=82	=82	=82	=82	=82	=82	=82	=82
8eee-	8ccc	8a	8f#	8cc	8a	8A	16D	4a	4f#	4f#	16D
.	.	.	.	.	.	.	16C#	.	.	.	16C#
8r	8r	8r	4a	8a	8f#	4c	16D	.	.	.	16D
.	.	.	.	.	.	.	16E-	.	.	.	16E-
8ddd	8aa	8f#	.	8f#	8d	.	16D	4cc	8a	8a	16D
.	.	.	.	.	.	.	16C	.	.	.	16C
8r	8r	8r	16g	8d	8a	16B-	16BB-	.	8d	8d	16BB-
.	.	.	16f#	.	.	16A	16AA	.	.	.	16AA
8ddd	8bb-	8d	8g	4g	8b-	4G	8GG	16b-	16g	16d	8GG
.	.	.	.	.	.	.	.	16a	16f#	16c	.
8r	8r	8r	4cc	.	8d	.	8GG	16b-	16g	16d	8GG
.	.	.	.	.	.	.	.	16cc	16a	16e-	.
8bb-	8gg	8dd	.	8r	8g	4r	8GG	16b-	16g	16d	8GG
.	.	.	.	.	.	.	.	16a	16f#	16c	.
8r	8r	8r	16b-	8d	8b-	.	8GG	16b-	16g	16d	8GG
.	.	.	16a	.	.	.	.	16cc	16a	16e-	.
=83	=83	=83	=83	=83	=83	=83	=83	=83	=83	=83	=83
8gg	8dd	8b-	4b-	8g	4dd	8r	8GG	16b-	16g	16d	8GG
.	.	.	.	.	.	.	.	16a	16f#	16c	.
8r	8r	8r	.	8b-	.	8D	8GG	16b-	16g	16d	8GG
.	.	.	.	.	.	.	.	16cc	16a	16e-	.
8dd	8b-	8g	8r	4dd	4g	8G	8GG	16b-	16g	16d	8GG
.	.	.	.	.	.	.	.	16a	16f#	16c	.
8r	8r	8r	8d	.	.	8B-	8GG	16b-	16g	16d	8GG
.	.	.	.	.	.	.	.	16cc	16e	16e	.
8a	8d	8a	8f	4a	4f	4d	8FF	4a	4a	4f	8FF
8r	8r	8r	8a	.	.	.	8FF	.	.	.	8FF
8f	8d	8A	[4dd	4f	4d	4A	8FF	4r	4r	4r	8FF
8r	8r	8r	.	.	.	.	8FF	.	.	.	8FF
=84	=84	=84	=84	=84	=84	=84	=84	=84	=84	=84	=84
16d	16B-	16F	4dd]	4d	4f	4F	8BB-	1r	1r	1r	8BB-
16c#	16A	16E	.	.	.	.	.	.	.	.	.
16d	16B-	16F	.	.	.	.	8BB-	.	.	.	8BB-
16e	16c	16G	.	.	.	.	.	.	.	.	.
16d	16B-	16F	4ff	2B-	4f	4D	8BB-	.	.	.	8BB-
16c#	16A	16E	.	.	.	.	.	.	.	.	.
16d	16B-	16F	.	.	.	.	8BB-	.	.	.	8BB-
16e	16c	16G	.	.	.	.	.	.	.	.	.
16d	16B-	16F	8.dd	.	[2f	8BB-	8AA	.	.	.	8AA
16c#	16A	16E	.	.	.	.	.	.	.	.	.
16d	16B-	16F	.	.	.	8AA	8AA	.	.	.	8AA
16e	16c	16G	16cc#	.	.	.	.	.	.	.	.
16d	16B-	16F	4dd	4B-	.	8AA	8AA	.	.	.	8AA
16c#	16A	16E	.	.	.	.	.	.	.	.	.
16d	16B-	16F	.	.	.	8GG#	8AA	.	.	.	8AA
16e	16c	16G	.	.	.	.	.	.	.	.	.
=85	=85	=85	=85	=85	=85	=85	=85	=85	=85	=85	=85
16d	16B	16F	8dd	2.B	2f]	2.GG#	8GG#	1dd	1r	1r	8GG#
16c#	16A	16E	.	.	.	.	.	.	.	.	.
16d	16B	16F	8b	.	.	.	8GG#	.	.	.	8GG#
16e	16c#	16G	.	.	.	.	.	.	.	.	.
16d	16B	16F	8g#	.	.	.	8GG#	.	.	.	8GG#
16c#	16A	16E	.	.	.	.	.	.	.	.	.
16d	16B	16F	8f	.	.	.	8GG#	.	.	.	8GG#
16e	16c#	16G	.	.	.	.	.	.	.	.	.
16d	16B	16F	4.d	.	2f	.	8GG#	.	.	.	8GG#
16c#	16A	16E	.	.	.	.	.	.	.	.	.
16d	16B	16F	.	.	.	.	8GG#	.	.	.	8GG#
16e	16c#	16G	.	.	.	.	.	.	.	.	.
16d	16B	16F	.	4B	.	4GG#	8GG#	.	.	.	8GG#
16f	16d	16D	.	.	.	.	.	.	.	.	.
16e	16c#	16E	8d	.	.	.	8GG#	.	.	.	8GG#
16d	16B	16F	.	.	.	.	.	.	.	.	.
=86	=86	=86	=86	=86	=86	=86	=86	=86	=86	=86	=86
16a	16e	8E	8c#	8A	8e	4AA	8AA	4cc#	1g	1g	8AA
16g	16d	.	.	.	.	.	.	.	.	.	.
16a	16e	16e	8e	8e	2r	.	8AA	.	.	.	8AA
16b-	16f	16d	.	.	.	.	.	.	.	.	.
16g	16e	16e	[4ee	8g	.	2.r	8AA	4b	.	.	8AA
16f	16d	16f	.	.	.	.	.	.	.	.	.
16g	16e	16e	.	8e	.	.	8AA	.	.	.	8AA
16b-	16f	16d	.	.	.	.	.	.	.	.	.
16a	16e	16c#	16ee]	8a	.	.	8AA	2cc#	.	.	8AA
16b-	16f	16d	16dd	.	.	.	.	.	.	.	.
16a	16e	16c#	16ee	8a	8e	.	8AA	.	.	.	8AA
16g	16d	16B	16ff	.	.	.	.	.	.	.	.
16a	16e	16c#	16ee	8a	8g	.	8AA	.	.	.	8AA
16g	16d	16B	16ff	.	.	.	.	.	.	.	.
16a	16e	16c#	16ee	8a	8e	.	8AA	.	.	.	8AA
16b-	16f	16d	16dd	.	.	.	.	.	.	.	.
=87	=87	=87	=87	=87	=87	=87	=87	=87	=87	=87	=87
16a	16e-	16A	16cc	16a	8a	8r	8AA	1cc	4f#	4f#	8AA
16g	16d	16d	16b	16g	.	.	.	.	.	.	.
16a	16e	16c	16cc	16a	8a	8A	8AA	.	.	.	8AA
16b-	16f#	16B-	16dd	16b-	.	.	.	.	.	.	.
16a	16g	16c	16cc	16a	8a	8c	8AA	.	4e	4e	8AA
16g	16b-	16B-	16dd	16b-	.	.	.	.	.	.	.
16a	16a	16c	16cc	16a	8a	8A	8AA	.	.	.	8AA
16b-	16g	16d	16b-	16g	.	.	.	.	.	.	.
16a	16f#	8e-	8a	16f#	16a	8d	8D	.	2f#	2f#	8D
16b-	16e	.	.	16e	16g	.	.	.	.	.	.
16a	16f#	8A	8a	16f#	16a	8d	8D	.	.	.	8D
16g	16g	.	.	16g	16b-	.	.	.	.	.	.
16a	16f#	8d	8cc	16f#	16a	8d	8D	.	.	.	8D
16e-	16g	.	.	16g	16b-	.	.	.	.	.	.
16d	16f#	8A	8a	16f#	16a	8d	8D	.	.	.	8D
16c	16e	.	.	16e	16g	.	.	.	.	.	.
=88	=88	=88	=88	=88	=88	=88	=88	=88	=88	=88	=88
16d	16d	8f	8dd	8d	16f	16d	8D	4b	1f	1f	8D
16c	16e	.	.	.	16e	16c	.	.	.	.	.
16d	16f	8d	8d	8d	16f	16d	8D	.	.	.	8D
16e	16g	.	.	.	16g	16e	.	.	.	.	.
16f	16a	8A	[4dd	8f	16f	16d	8D	4a	.	.	8D
16e	16g	.	.	.	16g	16e	.	.	.	.	.
16f	16a	8F	.	8d	16f	16d	8D	.	.	.	8D
16a	16f	.	.	.	16e	16c	.	.	.	.	.
16g	16d	8G	16dd]	8g	8d	16B	8GG	2b	.	.	8GG
16a	16e-	.	16cc	.	.	16A	.	.	.	.	.
16g	16d	8B	16dd	8G	8d	16B	8GG	.	.	.	8GG
16f	16c	.	16ee-	.	.	16c	.	.	.	.	.
16g	16d	8G	16dd	[4g	8f	16B	8GG	.	.	.	8GG
16f	16c	.	16ee-	.	.	16c	.	.	.	.	.
16g	16d	8B	16dd	.	8d	16B	8GG	.	.	.	8GG
16a	16c	.	16cc	.	.	16A	.	.	.	.	.
=89	=89	=89	=89	=89	=89	=89	=89	=89	=89	=89	=89
16b-	16B-	8e	16b-	16g]	8g	8G	8GG	1b-	4e	4e	8GG
16cc	16d	.	16a	16f	.	.	.	.	.	.	.
16b-	16e	8g	16b-	16g	8g	8G	8GG	.	.	.	8GG
16a	16f	.	16cc	16a	.	.	.	.	.	.	.
16g	16g	8g	16b-	16g	[4gg	8B-	8GG	.	4d	4d	8GG
16f	16a	.	16cc	16a	.	.	.	.	.	.	.
16g	16g	8B-	16b-	16g	.	8G	8GG	.	.	.	8GG
16a	16f	.	16a	16f	.	.	.	.	.	.	.
16g	16e	8c	8g	16e	16gg]	8c	8C	.	2e	2e	8C
16f	16d	.	.	16d	16ff	.	.	.	.	.	.
16g	16e	8G	8g	16e	16gg	8C	8C	.	.	.	8C
16a	16f	.	.	16f	16aa	.	.	.	.	.	.
16g	16e	8G	8b-	16e	16gg	[4c	8C	.	.	.	8C
16a	16f	.	.	16f	16aa	.	.	.	.	.	.
16g	16e	8c	8g	16e	16gg	.	8C	.	.	.	8C
16f	16d	.	.	16d	16ff	.	.	.	.	.	.
=90	=90	=90	=90	=90	=90	=90	=90	=90	=90	=90	=90
16e-	16c	8e-	8cc	8c	16ee-	16c]	8C	4a	2e-	2e-	8C
16d	16d	.	.	.	16dd	16B-	.	.	.	.	.
16c	16e-	8c	8c	8c	16ee-	16c	8C	.	.	.	8C
16d	16f	.	.	.	16ff	16d	.	.	.	.	.
16e-	16g	8G	[4cc	8e-	16ee-	16c	8C	4g	.	.	8C
16d	16f	.	.	.	16ff	16d	.	.	.	.	.
16e-	16g	8e-	.	8c	16ee-	16c	8C	.	.	.	8C
16g	16e-	.	.	.	16dd	16B-	.	.	.	.	.
16f	16c	8A	16cc]	8f	8cc	16A	8F	[2a	2ee-	2ee-	8F
16g	16d	.	16b-	.	.	16G	.	.	.	.	.
16f	16c	8a	16cc	8F	8cc	16A	8F	.	.	.	8F
16e-	16B-	.	16dd	.	.	16B-	.	.	.	.	.
16f	16c	8a	16cc	[4f	8ee-	16A	8F	.	.	.	8F
16e-	16B-	.	16dd	.	.	16B-	.	.	.	.	.
16f	16c	8f	16cc	.	8cc	16A	8F	.	.	.	8F
16g	16e-	.	16b-	.	.	16G	.	.	.	.	.
=91	=91	=91	=91	=91	=91	=91	=91	=91	=91	=91	=91
16a	16f	8f	16a	16f]	8ff	8F	8F	2a]	4dd	4dd	8F
16g	16e	.	16g	16e	.	.	.	.	.	.	.
16a	16f	8d	16a	16f	8f	8F	8F	.	.	.	8F
16b-	16g	.	16b-	16g	.	.	.	.	.	.	.
16a	16f	8A	16a	16f	[4ff	8A	8F	.	4cc#	4cc#	8F
16b-	16g	.	16b-	16g	.	.	.	.	.	.	.
16a	16f	8a	16a	16f	.	8F	8F	.	.	.	8F
16g	16e	.	16g	16e	.	.	.	.	.	.	.
16f	16d	8b	8f	16d	16ff]	8BB	8BB	2g#	[2dd	[2dd	8BB
16e	16c#	.	.	16c#	16ee	.	.	.	.	.	.
16f	16d	8d	8d	16d	16ff	8B	8BB	.	.	.	8BB
16g	16e	.	.	16e	16gg	.	.	.	.	.	.
16f	16d	8F	8f	16d	16ff	8d	8BB	.	.	.	8BB
16e	16c#	.	.	16e	16gg	.	.	.	.	.	.
16f	16d	8D	8d	16d	16ff	8B	8BB	.	.	.	8BB
16g	16e	.	.	16c	16ee	.	.	.	.	.	.
=92	=92	=92	=92	=92	=92	=92	=92	=92	=92	=92	=92
16e	16G	16d	8g	8B-	8dd	8G	8BB-	2g	1dd_	1dd_	8BB-
16d	16d	16A	.	.	.	.	.	.	.	.	.
16e	16g	16B-	8dd	8g	8dd	8G	8BB-	.	.	.	8BB-
16f	16a	16c	.	.	.	.	.	.	.	.	.
16e	16g	16B-	8b-	8r	8r	8r	8BB-	.	.	.	8BB-
16d	16f	16A	.	.	.	.	.	.	.	.	.
16e	16g	16B-	8g	8d	8dd	8B-	8BB-	.	.	.	8BB-
16g	16b-	16d	.	.	.	.	.	.	.	.	.
16a	16dd	16f#	4.r	8f#	8dd	8A	8AA	2f#	.	.	8AA
16g	16cc#	16e	.	.	.	.	.	.	.	.	.
16a	16dd	16f#	.	8a	8f#	8D	8AA	.	.	.	8AA
16b-	16ee	16g	.	.	.	.	.	.	.	.	.
16a	16dd	16f#	.	8r	8r	8F#	8AA	.	.	.	8AA
16g	16cc#	16e	.	.	.	.	.	.	.	.	.
16a	16dd	16d	8a	8d	8a	8A	8AA	.	.	.	8AA
16cc	16a	16e	.	.	.	.	.	.	.	.	.
=93	=93	=93	=93	=93	=93	=93	=93	=93	=93	=93	=93
16b	16d	16f	16b	16d	16ff	8d	8GG#	2f	1dd_	1dd_	8GG#
16a	16c#	16e	16a	16c#	16ee	.	.	.	.	.	.
16b	16d	16f	16b	16d	16ff	16d	8GG#	.	.	.	8GG#
16cc#	16e	16g	16cc#	16e	16gg	16c#	.	.	.	.	.
16b	16d	16f	16b	16d	16ff	8d	8GG#	.	.	.	8GG#
16a	16c#	16e	16a	16c#	16ee	.	.	.	.	.	.
16b	16d	16f	16b	16d	16ff	8B	8GG#	.	.	.	8GG#
16cc#	16e	16e	16cc#	16e	16ee	.	.	.	.	.	.
16dd	16f	8d	16dd	16f	16dd	4.G#	8GG#	[2ff	.	.	8GG#
16cc#	16e	.	16cc#	16e	16ee	.	.	.	.	.	.
16dd	16f	8B	16dd	16f	16dd	.	8GG#	.	.	.	8GG#
16ee	16g	.	16ee	16g	16cc#	.	.	.	.	.	.
16dd	16f	8B	16dd	16f	[4dd	.	8GG#	.	.	.	8GG#
16cc#	16e	.	16cc#	16e	.	.	.	.	.	.	.
16dd	16f	8B	16dd	16f	.	8G#	8GG#	.	.	.	8GG#
16ee	16e	.	16ee	16e	.	.	.	.	.	.	.
=94	=94	=94	=94	=94	=94	=94	=94	=94	=94	=94	=94
16ff	16d	16A	16ff	16d	16dd]	2A	8AA	2ff]	2dd]	2dd]	8AA
16gg	16c#	16e	16ee	16c#	16ee	.	.	.	.	.	.
16ff	16d	16f	16dd	16d	16ff	.	8AA	.	.	.	8AA
16ee	16e	16g	16cc#	16e	16gg	.	.	.	.	.	.
16dd	16f	16a	8dd	16f	8aa	.	8AA	.	.	.	8AA
16cc#	16e	16g	.	16e	.	.	.	.	.	.	.
16dd	16f	4a	8b	16f	8dd	.	8AA	.	.	.	8AA
16ee	16g	.	.	16g	.	.	.	.	.	.	.
16a	8a	.	4.cc#	4.a	4.ee	2AA	8AA	2ee	2cc#	2cc#	8AA
16g	.	.	.	.	.	.	.	.	.	.	.
16a	16e	8c#	.	.	.	.	8AA	.	.	.	8AA
16b-	16d	.	.	.	.	.	.	.	.	.	.
16g	16e	8c#	.	.	.	.	8AA	.	.	.	8AA
16f#	16d	.	.	.	.	.	.	.	.	.	.
16g	16e	8A	8dd	8a	8ee	.	8AA	.	.	.	8AA
16a	16f#	.	.	.	.	.	.	.	.	.	.
=95	=95	=95	=95	=95	=95	=95	=95	=95	=95	=95	=95
4f#	4d	4A	4dd	4a	4ff#	4D	4DD	4dd	4dd	4dd	4DD
2.r	2.r	2.r	2.r	2.r	2.r	2.r	2.r	2.r	2.r	2.r	2.r
==	==	==	==	==	==	==	==	==	==	==	==
*-	*-	*-	*-	*-	*-	*-	*-	*-	*-	*-	*-
!!!RWG1: This file contains only pitch and duration data.
!!!RWG2: Transposing instruments are not transposed.
!!!RWG3: Spines may have incompatible meters.
!!!RWG4: Durations of rests and tied notes may be interpreted.
!!!RWG: Key is interpreted using the Humdrum key tool.
!!!AFT: stage1
!!!END: 1997/04/15
!!format changes:
!!content changes:
!!public access: complete
!!!KEY: 1622676719
!!!EMD: Converted from MuseData to Humdrum Dec 19, 2000, by Andreas Kornstaedt using muse2kern.
